;FLAVOR:Marlin
;TIME:1611
;Filament used: 1.35618m
;Layer height: 0.15
;Generated with Cura_SteamEngine 3.0.4
M190 S60
M104 S210
M109 S210
M82 ; absolute extrusion mode
G21 ;metric values
G90 ;absolute positioning
M82 ;set extruder to absolute mode
M107 ;start with the fan off
G28 ;Home all axes (max endstops)
G1 Z15.0 F9000 ;move the platform down 15mm
G92 E0 ;zero the extruded length
G1 F200 E3 ;extrude 3mm of feed stock
G92 E0 ;zero the extruded length again
G1 F9000
;LAYER_COUNT:51
;LAYER:0
M107
G0 F1500 X0.84 Y0.15 Z0.3
;TYPE:SKIRT
G1 X2.792 Y2.021 E0.13645
G1 X6.888 Y5.626 E0.41182
G1 X11.191 Y8.999 E0.68773
G1 X15.651 Y12.108 E0.96209
G1 X20.297 Y14.969 E1.23745
G1 X25.095 Y17.562 E1.51268
G1 X30.068 Y19.896 E1.78991
G1 X31.965 Y20.699 E1.89386
G1 X32.442 Y20.944 E1.92092
G1 X32.877 Y21.258 E1.948
G1 X33.26 Y21.632 E1.97501
G1 X33.584 Y22.06 E2.0021
G1 X33.841 Y22.53 E2.02914
G1 X34.025 Y23.034 E2.05621
G1 X34.132 Y23.56 E2.0833
G1 X34.161 Y24.002 E2.10565
G1 X34.183 Y30.571 E2.43716
G1 X34.145 Y31.106 E2.46423
G1 X34.028 Y31.629 E2.49128
G1 X33.834 Y32.129 E2.51834
G1 X33.568 Y32.595 E2.54542
G1 X33.236 Y33.016 E2.57248
G1 X32.845 Y33.383 E2.59954
G1 X32.404 Y33.688 E2.6266
G1 X31.923 Y33.924 E2.65364
G1 X31.411 Y34.086 E2.68074
G1 X30.882 Y34.171 E2.70778
G1 X30.583 Y34.183 E2.72288
G1 X-.517 Y34.182 E4.29235
G1 X-1.052 Y34.142 E4.31942
G1 X-1.575 Y34.023 E4.34649
G1 X-2.074 Y33.828 E4.37353
G1 X-2.539 Y33.56 E4.40061
G1 X-3.063 Y33.128 E4.43488
G1 X-33.128 Y3.064 E6.58055
G1 X-33.477 Y2.657 E6.60761
G1 X-33.763 Y2.203 E6.63468
G1 X-33.978 Y1.712 E6.66173
G1 X-34.118 Y1.194 E6.68881
G1 X-34.182 Y0.518 E6.72308
G1 X-34.182 Y-30.583 E8.2926
G1 X-34.142 Y-31.118 E8.31967
G1 X-34.023 Y-31.641 E8.34674
G1 X-33.828 Y-32.14 E8.37378
G1 X-33.56 Y-32.605 E8.40086
G1 X-33.227 Y-33.025 E8.42791
G1 X-32.835 Y-33.391 E8.45498
G1 X-32.393 Y-33.694 E8.48202
G1 X-31.91 Y-33.929 E8.50913
G1 X-31.399 Y-34.089 E8.53615
G1 X-30.869 Y-34.172 E8.56322
G1 X-30.581 Y-34.183 E8.57777
G1 X-24.022 Y-34.182 E8.90877
G1 X-23.488 Y-34.142 E8.93579
G1 X-22.965 Y-34.023 E8.96286
G1 X-22.465 Y-33.828 E8.98995
G1 X-22 Y-33.56 E9.01703
G1 X-21.58 Y-33.227 E9.04408
G1 X-21.215 Y-32.834 E9.07115
G1 X-20.911 Y-32.392 E9.09822
G1 X-20.738 Y-32.055 E9.11734
G1 X-18.156 Y-26.296 E9.43584
G1 X-15.639 Y-21.475 E9.71029
G1 X-12.842 Y-16.79 E9.98565
G1 X-9.794 Y-12.281 E10.26031
G1 X-6.488 Y-7.941 E10.53564
G1 X-2.94 Y-3.795 E10.81102
G1 X0.84 Y0.15 E11.08675
G0 X0.557 Y0.433
G1 X2.509 Y2.304 E11.2232
G1 X6.633 Y5.934 E11.50046
G1 X10.95 Y9.319 E11.7773
G1 X15.434 Y12.444 E12.05312
G1 X20.11 Y15.323 E12.33024
G1 X24.906 Y17.915 E12.60536
G1 X29.9 Y20.259 E12.88376
G1 X31.809 Y21.067 E12.98837
G1 X32.257 Y21.301 E13.01388
G1 X32.663 Y21.602 E13.03938
G1 X33.017 Y21.963 E13.0649
G1 X33.31 Y22.375 E13.09041
G1 X33.533 Y22.829 E13.11594
G1 X33.683 Y23.311 E13.14141
G1 X33.761 Y24.003 E13.17656
G1 X33.783 Y30.572 E13.50807
G1 X33.745 Y31.076 E13.53357
G1 X33.628 Y31.568 E13.55909
G1 X33.434 Y32.035 E13.58461
G1 X33.17 Y32.466 E13.61012
G1 X32.841 Y32.85 E13.63564
G1 X32.456 Y33.178 E13.66116
G1 X32.024 Y33.44 E13.68666
G1 X31.556 Y33.632 E13.71219
G1 X31.064 Y33.747 E13.73769
G1 X30.583 Y33.783 E13.76203
G1 X-.517 Y33.782 E15.3315
G1 X-1.021 Y33.742 E15.35701
G1 X-1.512 Y33.623 E15.38251
G1 X-1.979 Y33.428 E15.40805
G1 X-2.409 Y33.163 E15.43354
G1 X-2.78 Y32.845 E15.4582
G1 X-32.845 Y2.781 E17.60386
G1 X-33.173 Y2.396 E17.62939
G1 X-33.436 Y1.965 E17.65487
G1 X-33.629 Y1.497 E17.68041
G1 X-33.745 Y1.005 E17.70592
G1 X-33.782 Y0.518 E17.73057
G1 X-33.782 Y-30.583 E19.30009
G1 X-33.742 Y-31.087 E19.32561
G1 X-33.623 Y-31.578 E19.3511
G1 X-33.429 Y-32.045 E19.37662
G1 X-33.163 Y-32.475 E19.40214
G1 X-32.833 Y-32.858 E19.42765
G1 X-32.446 Y-33.184 E19.45319
G1 X-32.013 Y-33.445 E19.4787
G1 X-31.545 Y-33.635 E19.50419
G1 X-31.052 Y-33.748 E19.52972
G1 X-30.582 Y-33.783 E19.5535
G1 X-24.023 Y-33.782 E19.8845
G1 X-23.519 Y-33.742 E19.91002
G1 X-23.027 Y-33.623 E19.93556
G1 X-22.561 Y-33.428 E19.96106
G1 X-22.131 Y-33.162 E19.98657
G1 X-21.748 Y-32.832 E20.01208
G1 X-21.422 Y-32.446 E20.03758
G1 X-21.103 Y-31.891 E20.06989
G1 X-18.521 Y-26.132 E20.38839
G1 X-15.986 Y-21.277 E20.66479
G1 X-13.178 Y-16.574 E20.94121
G1 X-10.119 Y-12.048 E21.21689
G1 X-6.795 Y-7.684 E21.49373
G1 X-3.233 Y-3.522 E21.77019
G1 X0.557 Y0.433 E22.04663
G1 F1500 E15.54663
G0 F1500 X-6.602 Y7.631
G0 X-7.493 Y8.528
G0 X8.648 Y24.709
G0 X8.686 Y24.617
;TYPE:WALL-INNER
G1 F1500 E22.04663
G1 X29.992 Y24.617 E23.12184
G1 X29.992 Y29.992 E23.39309
G1 X-.275 Y29.992 E24.92053
G1 X-29.992 Y0.275 E27.04139
G1 X-29.992 Y-29.992 E28.56882
G1 X-24.617 Y-29.992 E28.84007
G1 X-24.617 Y-8.501 E29.92462
G1 X8.686 Y24.617 E32.29482
G0 X8.648 Y24.709
G0 X-24.653 Y-8.486
G0 X-24.717 Y-8.667
G0 X-24.217 Y-8.667
;TYPE:WALL-OUTER
G1 X8.851 Y24.217 E34.64829
G1 X30.392 Y24.217 E35.73536
G1 X30.392 Y30.392 E36.04698
G1 X-.441 Y30.392 E37.60298
G1 X-30.392 Y0.441 E39.74054
G1 X-30.392 Y-30.392 E41.29654
G1 X-24.217 Y-30.392 E41.60816
G1 X-24.217 Y-8.667 E42.70452
G0 X-24.076 Y-8.526
G0 X-24.429 Y-8.174
G0 X-25.017 Y-8.335
;TYPE:WALL-INNER
G1 X8.52 Y25.017 E45.09142
G1 X29.592 Y25.017 E46.15483
G1 X29.592 Y29.592 E46.38571
G1 X-.111 Y29.592 E47.88468
G1 X-29.592 Y0.111 E49.9887
G1 X-29.592 Y-29.592 E51.48767
G1 X-25.017 Y-29.592 E51.71855
G1 X-25.017 Y-8.335 E52.79129
G0 X-0.004 Y29.411
;TYPE:SKIN
G1 X-29.411 Y0.004 E54.89003
G1 X-29.481 Y-0.066
G0 X-29.411 Y-.561
G1 X0.561 Y29.411 E57.02909
G1 X0.631 Y29.481
G0 X1.127 Y29.411
G1 X-29.411 Y-1.127 E59.20855
G1 X-29.481 Y-1.197
G0 X-29.411 Y-1.692
G1 X1.692 Y29.411 E61.42833
G1 X1.762 Y29.481
G0 X2.258 Y29.411
G1 X-29.411 Y-2.258 E63.68851
G1 X-29.481 Y-2.328
G0 X-29.411 Y-2.824
G1 X2.824 Y29.411 E65.98908
G1 X2.894 Y29.481
G0 X3.389 Y29.411
G1 X-29.411 Y-3.389 E68.32997
G1 X-29.481 Y-3.459
G0 X-29.411 Y-3.955
G1 X3.955 Y29.411 E70.71126
G1 X4.025 Y29.481
G0 X4.521 Y29.411
G1 X-29.411 Y-4.521 E73.13294
G1 X-29.481 Y-4.591
G0 X-29.411 Y-5.086
G1 X5.086 Y29.411 E75.59495
G1 X5.156 Y29.481
G0 X5.652 Y29.411
G1 X-29.411 Y-5.652 E78.09735
G1 X-29.481 Y-5.722
G0 X-29.411 Y-6.218
G1 X6.218 Y29.411 E80.64015
G1 X6.288 Y29.481
G0 X6.783 Y29.411
G1 X-29.411 Y-6.783 E83.22326
G1 X-29.481 Y-6.853
G0 X-29.411 Y-7.349
G1 X7.349 Y29.411 E85.84678
G1 X7.419 Y29.481
G0 X7.915 Y29.411
G1 X-29.411 Y-7.915 E88.51069
G1 X-29.481 Y-7.985
G0 X-29.411 Y-8.481
G1 X8.481 Y29.411 E91.21499
G1 X8.551 Y29.481
G0 X9.046 Y29.411
G1 X-29.411 Y-9.046 E93.95962
G1 X-29.481 Y-9.116
G0 X-29.411 Y-9.612
G1 X9.612 Y29.411 E96.74464
G1 X9.682 Y29.481
G0 X10.178 Y29.411
G1 X-29.411 Y-10.178 E99.57005
G1 X-29.481 Y-10.248
G0 X-29.411 Y-10.743
G1 X10.743 Y29.411 E102.43579
G1 X10.813 Y29.481
G0 X11.309 Y29.411
G1 X-29.411 Y-11.309 E105.34193
G1 X-29.481 Y-11.379
G0 X-29.411 Y-11.875
G1 X11.875 Y29.411 E108.28846
G1 X11.945 Y29.481
G0 X12.44 Y29.411
G1 X-29.411 Y-12.44 E111.27531
G1 X-29.481 Y-12.51
G0 X-29.411 Y-13.006
G1 X-25.196 Y-8.791 E111.57613
G1 X-25.126 Y-8.721
G0 X-25.196 Y-9.357
G1 X-29.411 Y-13.572 E111.87695
G1 X-29.481 Y-13.642
G0 X-29.411 Y-14.137
G1 X-25.196 Y-9.922 E112.17777
G1 X-25.126 Y-9.852
G0 X-25.196 Y-10.488
G1 X-29.411 Y-14.703 E112.47859
G1 X-29.481 Y-14.773
G0 X-29.411 Y-15.269
G1 X-25.196 Y-11.054 E112.7794
G1 X-25.126 Y-10.984
G0 X-25.196 Y-11.619
G1 X-29.411 Y-15.834 E113.08022
G1 X-29.481 Y-15.904
G0 X-29.411 Y-16.4
G1 X-25.196 Y-12.185 E113.38104
G1 X-25.126 Y-12.115
G0 X-25.196 Y-12.751
G1 X-29.411 Y-16.966 E113.68186
G1 X-29.481 Y-17.036
G0 X-29.411 Y-17.532
G1 X-25.196 Y-13.316 E113.98272
G1 X-25.126 Y-13.246
G0 X-25.196 Y-13.882
G1 X-29.411 Y-18.097 E114.28354
G1 X-29.481 Y-18.167
G0 X-29.411 Y-18.663
G1 X-25.196 Y-14.448 E114.58435
G1 X-25.126 Y-14.378
G0 X-25.196 Y-15.013
G1 X-29.411 Y-19.229 E114.88521
G1 X-29.481 Y-19.299
G0 X-29.411 Y-19.794
G1 X-25.196 Y-15.579 E115.18603
G1 X-25.126 Y-15.509
G0 X-25.196 Y-16.145
G1 X-29.411 Y-20.36 E115.48685
G1 X-29.481 Y-20.43
G0 X-29.411 Y-20.926
G1 X-25.196 Y-16.711 E115.78767
G1 X-25.126 Y-16.641
G0 X-25.196 Y-17.276
G1 X-29.411 Y-21.491 E116.08849
G1 X-29.481 Y-21.561
G0 X-29.411 Y-22.057
G1 X-25.196 Y-17.842 E116.38931
G1 X-25.126 Y-17.772
G0 X-25.196 Y-18.408
G1 X-29.411 Y-22.623 E116.69012
G1 X-29.481 Y-22.693
G0 X-29.411 Y-23.188
G1 X-25.196 Y-18.973 E116.99094
G1 X-25.126 Y-18.903
G0 X-25.196 Y-19.539
G1 X-29.411 Y-23.754 E117.29176
G1 X-29.481 Y-23.824
G0 X-29.411 Y-24.32
G1 X-25.196 Y-20.105 E117.59258
G1 X-25.126 Y-20.035
G0 X-25.196 Y-20.67
G1 X-29.411 Y-24.885 E117.8934
G1 X-29.481 Y-24.955
G0 X-29.411 Y-25.451
G1 X-25.196 Y-21.236 E118.19422
G1 X-25.126 Y-21.166
G0 X-25.196 Y-21.802
G1 X-29.411 Y-26.017 E118.49504
G1 X-29.481 Y-26.087
G0 X-29.411 Y-26.582
G1 X-25.196 Y-22.367 E118.79586
G1 X-25.126 Y-22.297
G0 X-25.196 Y-22.933
G1 X-29.411 Y-27.148 E119.09668
G1 X-29.481 Y-27.218
G0 X-29.411 Y-27.714
G1 X-25.196 Y-23.499 E119.3975
G1 X-25.126 Y-23.429
G0 X-25.196 Y-24.064
G1 X-29.411 Y-28.28 E119.69835
G1 X-29.481 Y-28.35
G0 X-29.411 Y-28.845
G1 X-25.196 Y-24.63 E119.99917
G1 X-25.126 Y-24.56
G0 X-25.196 Y-25.196
G1 X-29.411 Y-29.411 E120.29999
G1 X-29.481 Y-29.481
G0 X-28.845 Y-29.411
G1 X-25.196 Y-25.762 E120.56041
G1 X-25.126 Y-25.692
G0 X-25.196 Y-26.327
G1 X-28.28 Y-29.411 E120.78051
G1 X-28.35 Y-29.481
G0 X-27.714 Y-29.411
G1 X-25.196 Y-26.893 E120.96022
G1 X-25.126 Y-26.823
G0 X-25.196 Y-27.459
G1 X-27.148 Y-29.411 E121.09953
G1 X-27.218 Y-29.481
G0 X-26.582 Y-29.411
G1 X-25.196 Y-28.024 E121.19849
G1 X-25.126 Y-27.954
G0 X-25.196 Y-28.59
G1 X-26.017 Y-29.411 E121.25708
G1 X-26.087 Y-29.481
G0 X-25.451 Y-29.411
G1 X-25.196 Y-29.156 E121.27528
G0 X-24.653 Y-8.486
G0 X8.792 Y25.197
G1 X13.006 Y29.411 E121.57603
G1 X13.076 Y29.481
G0 X13.572 Y29.411
G1 X9.357 Y25.197 E121.87681
G1 X9.287 Y25.127
G0 X9.923 Y25.197
G1 X14.137 Y29.411 E122.17756
G1 X14.207 Y29.481
G0 X14.703 Y29.411
G1 X10.489 Y25.197 E122.47831
G1 X10.419 Y25.127
G0 X11.054 Y25.197
G1 X15.269 Y29.411 E122.77909
G1 X15.339 Y29.481
G0 X15.834 Y29.411
G1 X11.62 Y25.197 E123.07984
G1 X11.55 Y25.127
G0 X12.186 Y25.197
G1 X16.4 Y29.411 E123.38058
G1 X16.47 Y29.481
G0 X16.966 Y29.411
G1 X12.751 Y25.197 E123.68137
G1 X12.681 Y25.127
G0 X13.317 Y25.197
G1 X17.532 Y29.411 E123.98215
G1 X17.602 Y29.481
G0 X18.097 Y29.411
G1 X13.883 Y25.197 E124.2829
G1 X13.813 Y25.127
G0 X14.449 Y25.197
G1 X18.663 Y29.411 E124.58365
G1 X18.733 Y29.481
G0 X19.229 Y29.411
G1 X15.014 Y25.197 E124.88443
G1 X14.944 Y25.127
G0 X15.58 Y25.197
G1 X19.794 Y29.411 E125.18518
G1 X19.864 Y29.481
G0 X20.36 Y29.411
G1 X16.146 Y25.197 E125.48593
G1 X16.076 Y25.127
G0 X16.711 Y25.197
G1 X20.926 Y29.411 E125.78671
G1 X20.996 Y29.481
G0 X21.491 Y29.411
G1 X17.277 Y25.197 E126.08746
G1 X17.207 Y25.127
G0 X17.843 Y25.197
G1 X22.057 Y29.411 E126.3882
G1 X22.127 Y29.481
G0 X22.623 Y29.411
G1 X18.408 Y25.197 E126.68899
G1 X18.338 Y25.127
G0 X18.974 Y25.197
G1 X23.188 Y29.411 E126.98974
G1 X23.258 Y29.481
G0 X23.754 Y29.411
G1 X19.54 Y25.197 E127.29048
G1 X19.47 Y25.127
G0 X20.105 Y25.197
G1 X24.32 Y29.411 E127.59127
G1 X24.39 Y29.481
G0 X24.885 Y29.411
G1 X20.671 Y25.197 E127.89201
G1 X20.601 Y25.127
G0 X21.237 Y25.197
G1 X25.451 Y29.411 E128.19276
G1 X25.521 Y29.481
G0 X26.017 Y29.411
G1 X21.802 Y25.197 E128.49355
G1 X21.732 Y25.127
G0 X22.368 Y25.197
G1 X26.582 Y29.411 E128.79429
G1 X26.652 Y29.481
G0 X27.148 Y29.411
G1 X22.934 Y25.197 E129.09504
G1 X22.864 Y25.127
G0 X23.499 Y25.197
G1 X27.714 Y29.411 E129.39582
G1 X27.784 Y29.481
G0 X28.28 Y29.411
G1 X24.065 Y25.197 E129.69661
G1 X23.995 Y25.127
G0 X24.631 Y25.197
G1 X28.845 Y29.411 E129.99736
G1 X28.915 Y29.481
G0 X29.411 Y29.411
G1 X25.197 Y25.197 E130.2981
G1 X25.127 Y25.127
G0 X25.762 Y25.197
G1 X29.411 Y28.845 E130.55849
G1 X29.481 Y28.915
G0 X29.411 Y28.28
G1 X26.328 Y25.197 E130.77852
G1 X26.258 Y25.127
G0 X26.894 Y25.197
G1 X29.411 Y27.714 E130.95816
G1 X29.481 Y27.784
G0 X29.411 Y27.148
G1 X27.459 Y25.197 E131.09743
G1 X27.389 Y25.127
G0 X28.025 Y25.197
G1 X29.411 Y26.582 E131.19631
G1 X29.481 Y26.652
G0 X29.411 Y26.017
G1 X28.591 Y25.197 E131.25484
G1 X28.521 Y25.127
G0 X29.156 Y25.197
G1 X29.411 Y25.451 E131.273
G0 X8.671 Y24.653
G0 X-24.709 Y-8.463
G0 X-24.617 Y-8.501
;TIME_ELAPSED:117.928147
;LAYER:1
M140 S60
M106 S255
G0 F2250 X-24.617 Y-8.501 Z0.45
;TYPE:WALL-INNER
G1 F3150 X8.686 Y24.617 E132.4581
G1 X29.992 Y24.617 E132.99571
G1 X29.992 Y29.992 E133.13133
G1 X-.275 Y29.992 E133.89505
G1 X-29.992 Y0.275 E134.95548
G1 X-29.992 Y-29.992 E135.7192
G1 X-24.617 Y-29.992 E135.85482
G1 X-24.617 Y-8.501 E136.3971
G0 F2250 X-24.217 Y-8.667
;TYPE:WALL-OUTER
G1 F1950 X8.851 Y24.217 E137.57383
G1 X30.392 Y24.217 E138.11737
G1 X30.392 Y30.392 E138.27318
G1 X-.441 Y30.392 E139.05118
G1 X-30.392 Y0.441 E140.11996
G1 X-30.392 Y-30.392 E140.89796
G1 X-24.217 Y-30.392 E141.05377
G1 X-24.217 Y-8.667 E141.60195
G0 F2250 X-24.076 Y-8.526
G0 X-24.429 Y-8.174
G0 X-25.017 Y-8.335
;TYPE:WALL-INNER
G1 F3150 X8.52 Y25.017 E142.7954
G1 X29.592 Y25.017 E143.3271
G1 X29.592 Y29.592 E143.44254
G1 X-.111 Y29.592 E144.19203
G1 X-29.592 Y0.111 E145.24404
G1 X-29.592 Y-29.592 E145.99352
G1 X-25.017 Y-29.592 E146.10896
G1 X-25.017 Y-8.335 E146.64533
G0 F2250 X-29.411 Y-28.854
;TYPE:SKIN
G1 F1650 X-28.854 Y-29.411 E146.66521
G0 F2250 X-28.288 Y-29.411
G1 F1650 X-29.411 Y-28.288 E146.70528
G1 X-29.481 Y-28.218
G0 F2250 X-29.411 Y-27.722
G1 F1650 X-27.722 Y-29.411 E146.76555
G1 X-27.652 Y-29.481
G0 F2250 X-27.157 Y-29.411
G1 F1650 X-29.411 Y-27.157 E146.84598
G1 X-29.481 Y-27.087
G0 F2250 X-29.411 Y-26.591
G1 F1650 X-26.591 Y-29.411 E146.94661
G1 X-26.521 Y-29.481
G0 F2250 X-26.025 Y-29.411
G1 F1650 X-29.411 Y-26.025 E147.06744
G1 X-29.481 Y-25.955
G0 F2250 X-29.411 Y-25.46
G1 F1650 X-25.46 Y-29.411 E147.20843
G1 X-25.39 Y-29.481
G0 F2250 X-25.197 Y-29.108
G1 F1650 X-29.411 Y-24.894 E147.3588
G1 X-29.481 Y-24.824
G0 F2250 X-29.411 Y-24.328
G1 F1650 X-25.197 Y-28.543 E147.5092
G1 X-25.127 Y-28.613
G0 F2250 X-25.197 Y-27.977
G1 F1650 X-29.411 Y-23.763 E147.65957
G1 X-29.481 Y-23.693
G0 F2250 X-29.411 Y-23.197
G1 F1650 X-25.197 Y-27.411 E147.80994
G1 X-25.127 Y-27.481
G0 F2250 X-25.197 Y-26.846
G1 F1650 X-29.411 Y-22.631 E147.96034
G1 X-29.481 Y-22.561
G0 F2250 X-29.411 Y-22.065
G1 F1650 X-25.197 Y-26.28 E148.11073
G1 X-25.127 Y-26.35
G0 F2250 X-25.197 Y-25.714
G1 F1650 X-29.411 Y-21.5 E148.2611
G1 X-29.481 Y-21.43
G0 F2250 X-29.411 Y-20.934
G1 F1650 X-25.197 Y-25.148 E148.41147
G1 X-25.127 Y-25.218
G0 F2250 X-25.197 Y-24.583
G1 F1650 X-29.411 Y-20.368 E148.56187
G1 X-29.481 Y-20.298
G0 F2250 X-29.411 Y-19.803
G1 F1650 X-25.197 Y-24.017 E148.71224
G1 X-25.127 Y-24.087
G0 F2250 X-25.197 Y-23.451
G1 F1650 X-29.411 Y-19.237 E148.86261
G1 X-29.481 Y-19.167
G0 F2250 X-29.411 Y-18.671
G1 F1650 X-25.197 Y-22.886 E149.01301
G1 X-25.127 Y-22.956
G0 F2250 X-25.197 Y-22.32
G1 F1650 X-29.411 Y-18.106 E149.16338
G1 X-29.481 Y-18.036
G0 F2250 X-29.411 Y-17.54
G1 F1650 X-25.197 Y-21.754 E149.31375
G1 X-25.127 Y-21.824
G0 F2250 X-25.197 Y-21.189
G1 F1650 X-29.411 Y-16.974 E149.46415
G1 X-29.481 Y-16.904
G0 F2250 X-29.411 Y-16.409
G1 F1650 X-25.197 Y-20.623 E149.61452
G1 X-25.127 Y-20.693
G0 F2250 X-25.197 Y-20.057
G1 F1650 X-29.411 Y-15.843 E149.76489
G1 X-29.481 Y-15.773
G0 F2250 X-29.411 Y-15.277
G1 F1650 X-25.197 Y-19.492 E149.91529
G1 X-25.127 Y-19.562
G0 F2250 X-25.197 Y-18.926
G1 F1650 X-29.411 Y-14.712 E150.06566
G1 X-29.481 Y-14.642
G0 F2250 X-29.411 Y-14.146
G1 F1650 X-25.197 Y-18.36 E150.21603
G1 X-25.127 Y-18.43
G0 F2250 X-25.197 Y-17.795
G1 F1650 X-29.411 Y-13.58 E150.36642
G1 X-29.481 Y-13.51
G0 F2250 X-29.411 Y-13.015
G1 F1650 X-25.197 Y-17.229 E150.5168
G1 X-25.127 Y-17.299
G0 F2250 X-25.197 Y-16.663
G1 F1650 X-29.411 Y-12.449 E150.66717
G1 X-29.481 Y-12.379
G0 F2250 X-29.411 Y-11.883
G1 F1650 X-25.197 Y-16.097 E150.81755
G1 X-25.127 Y-16.167
G0 F2250 X-25.197 Y-15.532
G1 F1650 X-29.411 Y-11.317 E150.96794
G1 X-29.481 Y-11.247
G0 F2250 X-29.411 Y-10.752
G1 F1650 X-25.197 Y-14.966 E151.11831
G1 X-25.127 Y-15.036
G0 F2250 X-25.197 Y-14.4
