;FLAVOR:Marlin
;TIME:2069
;Filament used: 2.10384m
;Layer height: 0.15
;Generated with Cura_SteamEngine 2.7.0
M190 S55
M104 S200
M109 S200
G21 ;metric values
G90 ;absolute positioning
M82 ;set extruder to absolute mode
M107 ;start with the fan off
G28 ;Home all axes (max endstops)
G1 Z15.0 F9000 ;move the platform down 15mm
G92 E0 ;zero the extruded length
G1 F200 E3 ;extrude 3mm of feed stock
G92 E0 ;zero the extruded length again
G1 F9000
;LAYER_COUNT:93
;LAYER:0
M107
G0 F4500 X7.568 Y4.828 Z0.15
;TYPE:SKIRT
G1 F3000 X3.482 Y8.429 E0.13743
G1 X-.424 Y12.283 E0.27588
G1 X-2.236 Y14.231 E0.34301
G1 X-5.801 Y18.402 E0.48146
G1 X-9.104 Y22.742 E0.61908
G1 X-12.146 Y27.247 E0.75624
G1 X-14.956 Y31.963 E0.89476
G1 X-17.453 Y36.683 E1.0295
G1 X-17.853 Y37.285 E1.04774
G1 X-18.382 Y37.929 E1.06877
G1 X-18.753 Y38.317 E1.08231
G1 X-19.022 Y38.537 E1.09108
G1 X-19.877 Y39.17 E1.11792
G1 X-20.525 Y39.552 E1.1369
G1 X-20.992 Y39.765 E1.14986
G1 X-21.562 Y39.969 E1.16513
G1 X-22.345 Y40.177 E1.18557
G1 X-22.872 Y40.276 E1.1991
G1 X-23.181 Y40.297 E1.20692
G1 X-24.038 Y40.318 E1.22855
G1 X-24.573 Y40.291 E1.24207
G1 X-24.935 Y40.227 E1.25134
G1 X-25.989 Y39.984 E1.27864
G1 X-26.501 Y39.825 E1.29216
G1 X-26.822 Y39.68 E1.30105
G1 X-27.544 Y39.31 E1.32152
G1 X-28.08 Y38.973 E1.3375
G1 X-28.471 Y38.676 E1.34989
G1 X-29.015 Y38.165 E1.36872
G1 X-29.711 Y37.361 E1.39555
G1 X-30.153 Y36.722 E1.41516
G1 X-30.42 Y36.23 E1.42928
G1 X-30.687 Y35.602 E1.4465
G1 X-30.937 Y34.814 E1.46736
G1 X-31.071 Y34.227 E1.48255
G1 X-31.139 Y33.744 E1.49486
G1 X-31.172 Y33.138 E1.51017
G1 X-31.148 Y32.307 E1.53115
G1 X-31.093 Y31.774 E1.54467
G1 X-31.003 Y31.392 E1.55457
G1 X-30.705 Y30.382 E1.58115
G1 X-30.515 Y29.881 E1.59467
G1 X-30.334 Y29.54 E1.60441
G1 X-28.888 Y27.144 E1.67502
G1 X-26.193 Y22.388 E1.81296
G1 X-23.771 Y17.482 E1.95101
G1 X-21.647 Y12.492 E2.08785
G1 X-19.797 Y7.353 E2.22567
G1 X-18.237 Y2.11 E2.3637
G1 X-16.971 Y-3.232 E2.50222
G1 X-16.472 Y-5.839 E2.5692
G1 X-15.665 Y-11.266 E2.70764
G1 X-15.171 Y-16.685 E2.84494
G1 X-14.982 Y-22.144 E2.98277
G1 X-15.103 Y-27.604 E3.12058
G1 X-15.353 Y-31.309 E3.21428
G1 X-15.349 Y-31.845 E3.2278
G1 X-15.265 Y-32.375 E3.24134
G1 X-15.104 Y-32.886 E3.25486
G1 X-14.879 Y-33.351 E3.26789
G1 X-11.887 Y-38.534 E3.4189
G1 X-11.585 Y-38.977 E3.43243
G1 X-11.22 Y-39.37 E3.44596
G1 X-10.802 Y-39.705 E3.45948
G1 X-10.338 Y-39.974 E3.47301
G1 X-9.839 Y-40.171 E3.48655
G1 X-9.316 Y-40.292 E3.5001
G1 X-8.782 Y-40.334 E3.51361
G1 X-8.247 Y-40.296 E3.52715
G1 X-7.723 Y-40.179 E3.54069
G1 X-7.223 Y-39.985 E3.55423
G1 X-6.969 Y-39.852 E3.56146
G1 X29.388 Y-18.863 E4.62074
G1 X29.831 Y-18.561 E4.63427
G1 X30.224 Y-18.196 E4.6478
G1 X30.559 Y-17.777 E4.66134
G1 X30.828 Y-17.314 E4.67485
G1 X31.025 Y-16.815 E4.68839
G1 X31.146 Y-16.292 E4.70193
G1 X31.188 Y-15.758 E4.71545
G1 X31.15 Y-15.223 E4.72898
G1 X31.033 Y-14.699 E4.74253
G1 X30.839 Y-14.199 E4.75606
G1 X30.705 Y-13.945 E4.76331
G1 X27.713 Y-8.764 E4.91427
G1 X27.411 Y-8.321 E4.9278
G1 X27.047 Y-7.927 E4.94134
G1 X26.628 Y-7.592 E4.95487
G1 X26.303 Y-7.395 E4.96446
G1 X20.979 Y-4.527 E5.11705
G1 X16.341 Y-1.667 E5.25454
G1 X11.857 Y1.461 E5.3925
G1 X7.568 Y4.828 E5.53008
G0 F4500 X7.322 Y4.513
G1 F3000 X3.201 Y8.144 E5.66867
G1 X-.715 Y12.008 E5.80749
G1 X-2.528 Y13.957 E5.87465
G1 X-6.108 Y18.145 E6.01367
G1 X-9.429 Y22.51 E6.15207
G1 X-12.491 Y27.044 E6.29012
G1 X-15.295 Y31.75 E6.42834
G1 X-17.806 Y36.496 E6.56383
G1 X-18.162 Y37.031 E6.58004
G1 X-18.691 Y37.675 E6.60107
G1 X-19.042 Y38.039 E6.61383
G1 X-19.26 Y38.216 E6.62092
G1 X-20.115 Y38.849 E6.64776
G1 X-20.691 Y39.188 E6.66462
G1 X-21.158 Y39.401 E6.67757
G1 X-21.664 Y39.583 E6.69114
G1 X-22.447 Y39.791 E6.71159
G1 X-23.191 Y39.897 E6.73055
G1 X-24.048 Y39.918 E6.75218
G1 X-24.552 Y39.89 E6.76492
G1 X-24.845 Y39.837 E6.77243
G1 X-25.899 Y39.594 E6.79972
G1 X-26.381 Y39.442 E6.81247
G1 X-26.639 Y39.324 E6.81963
G1 X-27.361 Y38.954 E6.8401
G1 X-27.838 Y38.654 E6.85432
G1 X-28.229 Y38.357 E6.86671
G1 X-28.712 Y37.903 E6.88344
G1 X-29.408 Y37.099 E6.91027
G1 X-29.802 Y36.531 E6.92771
G1 X-30.069 Y36.039 E6.94184
G1 X-30.306 Y35.481 E6.95714
G1 X-30.556 Y34.693 E6.978
G1 X-30.675 Y34.171 E6.9915
G1 X-30.743 Y33.688 E7.00381
G1 X-30.773 Y33.15 E7.01741
G1 X-30.749 Y32.319 E7.03839
G1 X-30.694 Y31.816 E7.05115
G1 X-30.619 Y31.505 E7.05923
G1 X-30.321 Y30.495 E7.0858
G1 X-30.14 Y30.023 E7.09855
G1 X-29.991 Y29.747 E7.10647
G1 X-28.555 Y27.369 E7.17656
G1 X-25.837 Y22.57 E7.31573
G1 X-23.409 Y17.652 E7.45412
G1 X-21.278 Y12.648 E7.59136
G1 X-19.411 Y7.46 E7.73048
G1 X-17.854 Y2.227 E7.86824
G1 X-16.578 Y-3.156 E8.00784
G1 X-16.076 Y-5.779 E8.07522
G1 X-15.269 Y-11.205 E8.21364
G1 X-14.771 Y-16.671 E8.35213
G1 X-14.582 Y-22.139 E8.49019
G1 X-14.703 Y-27.618 E8.62847
G1 X-14.954 Y-31.336 E8.7225
G1 X-14.948 Y-31.841 E8.73524
G1 X-14.862 Y-32.339 E8.748
G1 X-14.699 Y-32.818 E8.76076
G1 X-14.532 Y-33.151 E8.77016
G1 X-11.54 Y-38.334 E8.92117
G1 X-11.254 Y-38.75 E8.93391
G1 X-10.905 Y-39.117 E8.94669
G1 X-10.503 Y-39.423 E8.95943
G1 X-10.058 Y-39.663 E8.97219
G1 X-9.581 Y-39.829 E8.98494
G1 X-9.083 Y-39.919 E8.99771
G1 X-8.578 Y-39.928 E9.01045
G1 X-8.077 Y-39.858 E9.02321
G1 X-7.594 Y-39.71 E9.03596
G1 X-7.169 Y-39.505 E9.04787
G1 X29.188 Y-18.516 E10.10715
G1 X29.604 Y-18.23 E10.11989
G1 X29.971 Y-17.881 E10.13267
G1 X30.277 Y-17.479 E10.14541
G1 X30.517 Y-17.034 E10.15817
G1 X30.683 Y-16.557 E10.17092
G1 X30.773 Y-16.059 E10.18368
G1 X30.782 Y-15.554 E10.19643
G1 X30.712 Y-15.053 E10.20919
G1 X30.564 Y-14.569 E10.22196
G1 X30.359 Y-14.145 E10.23385
G1 X27.367 Y-8.964 E10.38481
G1 X27.08 Y-8.547 E10.39759
G1 X26.732 Y-8.181 E10.41033
G1 X26.113 Y-7.747 E10.4294
G1 X20.784 Y-4.877 E10.58213
G1 X16.103 Y-1.99 E10.7209
G1 X11.626 Y1.133 E10.85864
G1 X7.322 Y4.513 E10.99672
G1 F1500 E4.49672
G0 F4500 X17.834 Y-13.692
G0 X18.466 Y-14.787
G0 X24.26 Y-11.556
G0 X24.209 Y-11.471
;TYPE:WALL-INNER
G1 F1500 E10.99672
G1 F3000 X9.684 Y-19.857 E11.41993
G1 X9.511 Y-19.957 E11.42497
G1 X9.411 Y-19.784 E11.42822
G1 X-20.673 Y32.323 E12.94642
G1 X-20.629 Y32.963 E12.96261
G1 X-20.661 Y33.415 E12.97404
G1 X-20.758 Y33.861 E12.98556
G1 X-20.918 Y34.291 E12.99714
G1 X-21.133 Y34.681 E13.00837
G1 X-21.41 Y35.051 E13.02004
G1 X-21.727 Y35.368 E13.03135
G1 X-22.091 Y35.64 E13.04281
G1 X-22.499 Y35.863 E13.05455
G1 X-22.92 Y36.019 E13.06587
G1 X-23.357 Y36.114 E13.07716
G1 X-23.822 Y36.146 E13.08892
G1 X-24.268 Y36.114 E13.1002
G1 X-24.714 Y36.017 E13.11172
G1 X-25.143 Y35.857 E13.12327
G1 X-25.533 Y35.642 E13.13451
G1 X-25.904 Y35.365 E13.14619
G1 X-26.221 Y35.048 E13.1575
G1 X-26.495 Y34.681 E13.16906
G1 X-26.715 Y34.276 E13.18069
G1 X-26.871 Y33.856 E13.192
G1 X-26.967 Y33.411 E13.20348
G1 X-27 Y32.958 E13.21494
G1 X-26.966 Y32.507 E13.22636
G1 X-26.869 Y32.061 E13.23787
G1 X-26.71 Y31.634 E13.24937
G1 X-26.493 Y31.24 E13.26072
G1 X-26.218 Y30.871 E13.27233
G1 X-25.9 Y30.553 E13.28368
G1 X-25.538 Y30.285 E13.29504
G1 X-25.127 Y30.06 E13.30687
G1 X-24.85 Y29.956 E13.31433
G1 X5.253 Y-22.184 E14.83349
G1 X5.353 Y-22.357 E14.83853
G1 X5.18 Y-22.457 E14.84179
G1 X-10.953 Y-31.771 E15.31184
G1 X-8.653 Y-35.756 E15.42794
G1 X-8.553 Y-35.929 E15.43298
G1 X-8.38 Y-35.83 E15.43801
G1 X26.782 Y-15.529 E16.4625
G1 X24.482 Y-11.544 E16.57859
G1 X24.382 Y-11.371 E16.58364
G1 X24.209 Y-11.471 E16.58689
G0 F4500 X24.26 Y-11.556
G0 X9.501 Y-19.995
G0 X-22.093 Y31.585
G0 X-22.171 Y31.647
G1 F3000 X-22.505 Y31.316 E16.59876
G1 X-22.904 Y31.065 E16.61065
G1 X-23.348 Y30.911 E16.62251
G1 X-23.817 Y30.857 E16.63442
G1 X-24.285 Y30.912 E16.64631
G1 X-24.73 Y31.068 E16.65821
G1 X-25.128 Y31.319 E16.67008
G1 X-25.459 Y31.653 E16.68195
G1 X-25.71 Y32.052 E16.69384
G1 X-25.864 Y32.496 E16.7057
G1 X-25.918 Y32.963 E16.71756
G1 X-25.863 Y33.432 E16.72948
G1 X-25.708 Y33.876 E16.74134
G1 X-25.456 Y34.276 E16.75327
G1 X-25.123 Y34.607 E16.76512
G1 X-24.725 Y34.858 E16.77699
G1 X-24.279 Y35.013 E16.78891
G1 X-23.812 Y35.065 E16.80076
G1 X-23.343 Y35.011 E16.81268
G1 X-22.899 Y34.856 E16.82454
G1 X-22.499 Y34.604 E16.83647
G1 X-22.168 Y34.27 E16.84834
G1 X-21.917 Y33.871 E16.86023
G1 X-21.762 Y33.426 E16.87212
G1 X-21.71 Y32.958 E16.884
G1 X-21.764 Y32.491 E16.89586
G1 X-21.919 Y32.047 E16.90773
G1 X-22.171 Y31.647 E16.91966
G0 F4500 X-22.485 Y31.899
;TYPE:WALL-OUTER
G1 F3000 X-22.755 Y31.631 E16.92926
G1 X-23.078 Y31.428 E16.93889
G1 X-23.437 Y31.303 E16.94848
G1 X-23.816 Y31.26 E16.9581
G1 X-24.195 Y31.304 E16.96773
G1 X-24.555 Y31.43 E16.97735
G1 X-24.876 Y31.633 E16.98694
G1 X-25.144 Y31.903 E16.99654
G1 X-25.347 Y32.226 E17.00616
G1 X-25.472 Y32.585 E17.01575
G1 X-25.515 Y32.963 E17.02535
G1 X-25.471 Y33.342 E17.03498
G1 X-25.345 Y33.701 E17.04458
G1 X-25.142 Y34.024 E17.05421
G1 X-24.872 Y34.292 E17.06381
G1 X-24.55 Y34.495 E17.07341
G1 X-24.19 Y34.62 E17.08303
G1 X-23.812 Y34.662 E17.09262
G1 X-23.433 Y34.619 E17.10225
G1 X-23.074 Y34.493 E17.11185
G1 X-22.751 Y34.29 E17.12147
G1 X-22.483 Y34.02 E17.13107
G1 X-22.28 Y33.697 E17.1407
G1 X-22.155 Y33.337 E17.15032
G1 X-22.113 Y32.959 E17.15991
G1 X-22.156 Y32.581 E17.16951
G1 X-22.282 Y32.222 E17.17911
G1 X-22.485 Y31.899 E17.18874
G0 F4500 X-22.627 Y31.758
G0 X-22.275 Y31.404
G0 X-20.698 Y32.168
G0 X-20.266 Y32.417
G1 F3000 X-20.228 Y32.971 E17.20275
G1 X-20.264 Y33.473 E17.21545
G1 X-20.373 Y33.975 E17.22841
G1 X-20.552 Y34.455 E17.24134
G1 X-20.797 Y34.9 E17.25416
G1 X-21.108 Y35.315 E17.26724
G1 X-21.464 Y35.671 E17.27994
G1 X-21.874 Y35.977 E17.29285
G1 X-22.332 Y36.227 E17.30602
G1 X-22.808 Y36.404 E17.31883
G1 X-23.299 Y36.511 E17.33151
G1 X-23.824 Y36.547 E17.34479
G1 X-24.326 Y36.511 E17.35749
G1 X-24.828 Y36.402 E17.37045
G1 X-25.307 Y36.223 E17.38336
G1 X-25.752 Y35.978 E17.39617
G1 X-26.168 Y35.667 E17.40928
G1 X-26.524 Y35.311 E17.42198
G1 X-26.83 Y34.901 E17.43489
G1 X-27.079 Y34.444 E17.44802
G1 X-27.256 Y33.967 E17.46086
G1 X-27.364 Y33.469 E17.47372
G1 X-27.401 Y32.958 E17.48665
G1 X-27.363 Y32.449 E17.49953
G1 X-27.254 Y31.947 E17.51249
G1 X-27.075 Y31.468 E17.52539
G1 X-26.831 Y31.023 E17.5382
G1 X-26.52 Y30.607 E17.5513
G1 X-26.165 Y30.252 E17.56397
G1 X-25.751 Y29.945 E17.57698
G1 X-25.297 Y29.697 E17.59003
G1 X-25.125 Y29.632 E17.59467
G1 X4.707 Y-22.038 E19.10014
G1 X4.807 Y-22.211 E19.10518
G1 X4.634 Y-22.311 E19.10844
G1 X-11.499 Y-31.625 E19.57849
G1 X-8.799 Y-36.302 E19.71475
G1 X-8.699 Y-36.475 E19.71979
G1 X-8.526 Y-36.375 E19.72305
G1 X27.328 Y-15.675 E20.76769
G1 X24.628 Y-10.998 E20.90396
G1 X24.528 Y-10.825 E20.909
G1 X24.355 Y-10.925 E20.91226
G1 X9.83 Y-19.311 E21.33546
G1 X9.657 Y-19.411 E21.3405
G1 X9.557 Y-19.238 E21.34376
G1 X-20.266 Y32.417 E22.84879
G0 F4500 X-20.253 Y32.616
G0 X-20.75 Y32.649
G0 X-22.474 Y34.635
G0 X-22.882 Y34.892
G0 X-23.335 Y35.049
G0 X-23.812 Y35.105
G0 X-24.287 Y35.052
G0 X-24.742 Y34.894
G0 X-25.636 Y34.326
;TYPE:SKIN
G1 F3000 X-26.805 Y33.156 E22.89052
G1 X-26.875 Y33.086
G0 F4500 X-26.792 Y32.603
G1 F3000 X-26.054 Y33.342 E22.91687
G1 X-25.984 Y33.412
G0 F4500 X-26.075 Y32.756
G1 F3000 X-26.701 Y32.13 E22.93921
G1 X-26.771 Y32.06
G0 F4500 X-26.549 Y31.715
G1 F3000 X-25.98 Y32.285 E22.95953
G1 X-25.91 Y32.355
G0 F4500 X-25.815 Y31.884
G1 F3000 X-26.349 Y31.35 E22.97859
G0 F4500 X-26.109 Y31.025
G1 F3000 X-25.597 Y31.536 E22.99684
G0 F4500 X-25.315 Y31.252
G1 F3000 X-25.831 Y30.737 E23.01524
G0 F4500 X-25.512 Y30.49
G1 F3000 X-24.987 Y31.015 E23.03397
G0 F4500 X-24.604 Y30.832
G1 F3000 X-25.156 Y30.281 E23.05365
G0 F4500 X-24.758 Y30.112
G1 F3000 X-24.156 Y30.715 E23.07515
G1 X-24.086 Y30.785
G0 F4500 X-23.606 Y30.699
G1 F3000 X-24.535 Y29.769 E23.10832
G1 X-24.605 Y29.699
G0 F4500 X-24.328 Y29.411
G1 F3000 X-22.845 Y30.894 E23.16124
G1 X-22.775 Y30.964
G0 F4500 X-21.748 Y31.991
G1 F3000 X-20.811 Y32.928 E23.19467
G1 X-20.741 Y32.998
G0 F4500 X-20.852 Y33.453
G1 F3000 X-21.552 Y32.753 E23.21965
G1 X-21.622 Y32.683
G0 F4500 X-21.567 Y33.304
G1 F3000 X-20.966 Y33.905 E23.2411
G1 X-20.896 Y33.975
G0 F4500 X-21.131 Y34.305
G1 F3000 X-21.685 Y33.751 E23.26087
G0 F4500 X-21.87 Y34.132
G1 F3000 X-21.342 Y34.66 E23.27971
G0 F4500 X-21.59 Y34.977
G1 F3000 X-22.106 Y34.462 E23.29811
G0 F4500 X-22.388 Y34.745
G1 F3000 X-21.878 Y35.255 E23.3163
G0 F4500 X-22.204 Y35.495
G1 F3000 X-22.734 Y34.965 E23.33522
G0 F4500 X-23.136 Y35.129
G1 F3000 X-22.569 Y35.696 E23.35545
G1 X-22.499 Y35.766
G0 F4500 X-22.983 Y35.848
G1 F3000 X-23.608 Y35.222 E23.37777
G1 X-23.678 Y35.152
G0 F4500 X-24.195 Y35.201
G1 F3000 X-23.457 Y35.939 E23.40411
G1 X-23.387 Y36.009
G0 F4500 X-24.01 Y35.952
G1 F3000 X-25.18 Y34.782 E23.44586
G1 X-25.25 Y34.712
G0 F4500 X-24.697 Y35.83
G1 F3000 X-26.682 Y33.845 E23.51669
G1 X-26.752 Y33.775
G0 F4500 X-24.121 Y29.052
G1 F3000 X-20.853 Y32.32 E23.63331
G1 X-20.783 Y32.39
G0 F4500 X-20.663 Y31.945
G1 F3000 X-23.915 Y28.693 E23.74935
G1 X-23.985 Y28.623
G0 F4500 X-23.707 Y28.335
G1 F3000 X-20.456 Y31.586 E23.86536
G1 X-20.386 Y31.656
G0 F4500 X-20.249 Y31.227
G1 F3000 X-23.5 Y27.976 E23.98137
G1 X-23.57 Y27.906
G0 F4500 X-23.293 Y27.618
G1 F3000 X-20.042 Y30.869 E24.09738
G1 X-19.972 Y30.939
G0 F4500 X-19.835 Y30.51
G1 F3000 X-23.086 Y27.259 E24.21339
G1 X-23.156 Y27.189
G0 F4500 X-22.879 Y26.901
G1 F3000 X-19.627 Y30.152 E24.32942
G1 X-19.557 Y30.222
G0 F4500 X-19.42 Y29.793
G1 F3000 X-22.672 Y26.541 E24.44546
G1 X-22.742 Y26.471
G0 F4500 X-22.465 Y26.183
G1 F3000 X-19.214 Y29.434 E24.56147
G1 X-19.144 Y29.504
G0 F4500 X-19.007 Y29.076
G1 F3000 X-22.258 Y25.824 E24.6775
G1 X-22.328 Y25.754
G0 F4500 X-22.051 Y25.466
G1 F3000 X-18.799 Y28.717 E24.79353
G1 X-18.729 Y28.787
G0 F4500 X-18.592 Y28.359
G1 F3000 X-21.843 Y25.107 E24.90956
G1 X-21.913 Y25.037
G0 F4500 X-21.637 Y24.748
G1 F3000 X-18.385 Y28 E25.0256
G1 X-18.315 Y28.07
G0 F4500 X-18.179 Y27.641
G1 F3000 X-21.43 Y24.39 E25.14161
G1 X-21.5 Y24.32
G0 F4500 X-21.223 Y24.031
G1 F3000 X-17.971 Y27.283 E25.25766
G1 X-17.901 Y27.353
G0 F4500 X-17.764 Y26.924
G1 F3000 X-21.015 Y23.673 E25.37367
G1 X-21.085 Y23.603
G0 F4500 X-20.808 Y23.314
G1 F3000 X-17.557 Y26.566 E25.4897
G1 X-17.487 Y26.636
G0 F4500 X-17.35 Y26.207
G1 F3000 X-20.601 Y22.956 E25.60571
G1 X-20.671 Y22.886
G0 F4500 X-20.395 Y22.597
G1 F3000 X-17.143 Y25.848 E25.72173
G1 X-17.073 Y25.918
G0 F4500 X-16.936 Y25.489
G1 F3000 X-20.187 Y22.238 E25.83774
G1 X-20.257 Y22.168
G0 F4500 X-19.98 Y21.88
G1 F3000 X-16.729 Y25.131 E25.95375
G1 X-16.659 Y25.201
G0 F4500 X-16.522 Y24.772
G1 F3000 X-19.773 Y21.521 E26.06976
G1 X-19.843 Y21.451
G0 F4500 X-19.566 Y21.162
G1 F3000 X-16.315 Y24.414 E26.18579
G1 X-16.245 Y24.484
G0 F4500 X-16.107 Y24.055
G1 F3000 X-19.359 Y20.804 E26.30182
G1 X-19.429 Y20.734
G0 F4500 X-19.152 Y20.445
G1 F3000 X-15.9 Y23.697 E26.41786
G1 X-15.83 Y23.767
G0 F4500 X-15.694 Y23.338
G1 F3000 X-18.945 Y20.086 E26.53389
G1 X-19.015 Y20.016
G0 F4500 X-18.738 Y19.728
G1 F3000 X-15.487 Y22.979 E26.6499
G1 X-15.417 Y23.049
G0 F4500 X-15.279 Y22.621
G1 F3000 X-18.531 Y19.369 E26.76595
G1 X-18.601 Y19.299
G0 F4500 X-18.323 Y19.011
G1 F3000 X-15.072 Y22.262 E26.88196
G1 X-15.002 Y22.332
G0 F4500 X-14.865 Y21.904
G1 F3000 X-18.116 Y18.652 E26.99798
G1 X-18.186 Y18.582
G0 F4500 X-17.91 Y18.293
G1 F3000 X-14.658 Y21.545 E27.11403
G1 X-14.588 Y21.615
G0 F4500 X-14.451 Y21.186
G1 F3000 X-17.703 Y17.935 E27.23006
G1 X-17.773 Y17.865
G0 F4500 X-17.495 Y17.576
G1 F3000 X-14.244 Y20.827 E27.34607
G1 X-14.174 Y20.897
G0 F4500 X-14.037 Y20.469
G1 F3000 X-17.288 Y17.218 E27.46208
G1 X-17.358 Y17.148
G0 F4500 X-17.081 Y16.859
G1 F3000 X-13.83 Y20.11 E27.57809
G1 X-13.76 Y20.18
G0 F4500 X-13.623 Y19.752
G1 F3000 X-16.874 Y16.501 E27.6941
G1 X-16.944 Y16.431
G0 F4500 X-16.667 Y16.141
G1 F3000 X-13.416 Y19.393 E27.81012
G1 X-13.346 Y19.463
G0 F4500 X-13.209 Y19.034
G1 F3000 X-16.46 Y15.783 E27.92613
G1 X-16.53 Y15.713
G0 F4500 X-16.253 Y15.424
G1 F3000 X-13.002 Y18.676 E28.04216
G1 X-12.932 Y18.746
G0 F4500 X-12.795 Y18.317
G1 F3000 X-16.046 Y15.066 E28.15817
G1 X-16.116 Y14.996
G0 F4500 X-15.839 Y14.707
G1 F3000 X-12.587 Y17.959 E28.27422
G1 X-12.517 Y18.029
G0 F4500 X-12.38 Y17.6
G1 F3000 X-15.632 Y14.348 E28.39026
