; MugBot GCODE - Generated by MugBot UI
; Date: 2025-12-03T20:28:39.729Z
; X Range: 280mm
; Y Range: 80mm
; Extrusion Rate: 1.4
; Z Position: 0mm (fixed)

G21 ; Set units to millimeters
G90 ; Absolute positioning
M83 ; Relative extrusion mode
G92 E0 ; Reset extruder position
M221 S140 ; Set extrusion multiplier to 140%

; Move to start position
G0 Z0 F3000 ; Set Z to 0
G0 X0 Y0 F3000 ; Move to origin

; Path 1
G0 X421.620 Y0.000 F3000
G1 X421.620 Y-40.279 E5.63908 F1500
G1 X421.620 Y-80.558 E5.63908 F1500
G1 X421.620 Y-120.837 E5.63908 F1500
G1 X421.620 Y-161.116 E5.63908 F1500
G1 X421.620 Y-201.396 E5.63908 F1500
G1 X593.594 Y-201.396 E24.07638 F1500
G1 X765.568 Y-201.396 E24.07638 F1500
G1 X937.542 Y-201.396 E24.07638 F1500
G1 X1109.516 Y-201.396 E24.07638 F1500
G1 X1281.490 Y-201.396 E24.07638 F1500
G1 X1109.516 Y-161.116 E24.72794 F1500
G1 X937.542 Y-120.837 E24.72794 F1500
G1 X765.568 Y-80.558 E24.72794 F1500
G1 X593.594 Y-40.279 E24.72794 F1500
G1 X421.620 Y0.000 E24.72794 F1500

; Path 2
G0 X27.622 Y0.000 F3000
G1 X27.622 Y0.458 E0.06411 F1500
G1 X27.622 Y0.916 E0.06411 F1500
G1 X27.622 Y1.374 E0.06411 F1500
G1 X27.622 Y1.832 E0.06411 F1500
G1 X27.622 Y2.290 E0.06411 F1500
G1 X27.634 Y2.619 E0.04618 F1500
G1 X27.646 Y2.949 E0.04618 F1500
G1 X27.658 Y3.278 E0.04618 F1500
G1 X27.670 Y3.608 E0.04618 F1500
G1 X27.682 Y3.938 E0.04618 F1500
G1 X28.180 Y3.440 E0.09861 F1500
G1 X28.679 Y2.943 E0.09861 F1500
G1 X29.177 Y2.445 E0.09861 F1500
G1 X29.676 Y1.947 E0.09861 F1500
G1 X30.174 Y1.450 E0.09861 F1500
G1 X30.184 Y1.525 E0.01060 F1500
G1 X30.194 Y1.600 E0.01060 F1500
G1 X30.205 Y1.675 E0.01060 F1500
G1 X30.215 Y1.750 E0.01060 F1500
G1 X30.225 Y1.825 E0.01060 F1500
G1 X29.572 Y2.479 E0.12940 F1500
G1 X28.918 Y3.133 E0.12940 F1500
G1 X28.265 Y3.787 E0.12940 F1500
G1 X27.612 Y4.441 E0.12940 F1500
G1 X26.959 Y5.095 E0.12940 F1500
G1 X26.306 Y5.749 E0.12940 F1500
G1 X25.653 Y6.403 E0.12940 F1500
G1 X25.000 Y7.057 E0.12940 F1500
G1 X24.347 Y7.711 E0.12940 F1500
G1 X23.694 Y8.365 E0.12940 F1500
G1 X23.694 Y8.993 E0.08794 F1500
G1 X23.694 Y9.622 E0.08794 F1500
G1 X23.694 Y10.250 E0.08794 F1500
G1 X23.694 Y10.878 E0.08794 F1500
G1 X23.694 Y11.506 E0.08794 F1500
G1 X23.280 Y11.864 E0.07657 F1500
G1 X22.866 Y12.222 E0.07657 F1500
G1 X22.453 Y12.580 E0.07657 F1500
G1 X22.039 Y12.937 E0.07657 F1500
G1 X21.626 Y13.295 E0.07657 F1500
G1 X21.639 Y13.920 E0.08744 F1500
G1 X21.652 Y14.544 E0.08744 F1500
G1 X21.665 Y15.168 E0.08744 F1500
G1 X21.678 Y15.793 E0.08744 F1500
G1 X21.692 Y16.417 E0.08744 F1500
G1 X25.127 Y18.916 E0.59472 F1500
G1 X28.563 Y21.414 E0.59472 F1500
G1 X31.998 Y23.913 E0.59472 F1500
G1 X35.434 Y26.411 E0.59472 F1500
G1 X38.869 Y28.910 E0.59472 F1500
G1 X39.714 Y28.667 E0.12306 F1500
G1 X40.559 Y28.424 E0.12306 F1500
G1 X41.404 Y28.181 E0.12306 F1500
G1 X42.248 Y27.938 E0.12306 F1500
G1 X43.093 Y27.695 E0.12306 F1500
G1 X42.863 Y26.824 E0.12613 F1500
G1 X42.633 Y25.953 E0.12613 F1500
G1 X42.403 Y25.082 E0.12613 F1500
G1 X42.173 Y24.211 E0.12613 F1500
G1 X41.943 Y23.340 E0.12613 F1500
G1 X41.741 Y23.223 E0.03265 F1500
G1 X41.539 Y23.107 E0.03265 F1500
G1 X41.337 Y22.991 E0.03265 F1500
G1 X41.134 Y22.874 E0.03265 F1500
G1 X40.932 Y22.758 E0.03265 F1500
G1 X40.821 Y22.184 E0.08192 F1500
G1 X40.710 Y21.609 E0.08192 F1500
G1 X40.598 Y21.035 E0.08192 F1500
G1 X40.487 Y20.460 E0.08192 F1500
G1 X40.376 Y19.886 E0.08192 F1500
G1 X39.834 Y19.575 E0.08747 F1500
G1 X39.291 Y19.264 E0.08747 F1500
G1 X38.749 Y18.954 E0.08747 F1500
G1 X38.207 Y18.643 E0.08747 F1500
G1 X37.665 Y18.332 E0.08747 F1500
G1 X37.665 Y18.956 E0.08724 F1500
G1 X37.665 Y19.579 E0.08724 F1500
G1 X37.665 Y20.202 E0.08724 F1500
G1 X37.665 Y20.825 E0.08724 F1500
G1 X37.665 Y21.448 E0.08724 F1500
G1 X37.715 Y21.500 E0.01010 F1500
G1 X37.765 Y21.553 E0.01010 F1500
G1 X37.814 Y21.605 E0.01010 F1500
G1 X37.864 Y21.657 E0.01010 F1500
G1 X37.914 Y21.710 E0.01010 F1500
G1 X37.594 Y21.439 E0.05866 F1500
G1 X37.274 Y21.168 E0.05866 F1500
G1 X36.954 Y20.898 E0.05866 F1500
G1 X36.634 Y20.627 E0.05866 F1500
G1 X36.315 Y20.356 E0.05866 F1500
G1 X36.309 Y20.604 E0.03471 F1500
G1 X36.304 Y20.852 E0.03471 F1500
G1 X36.299 Y21.100 E0.03471 F1500
G1 X36.293 Y21.348 E0.03471 F1500
G1 X36.288 Y21.595 E0.03471 F1500
G1 X36.283 Y21.843 E0.03471 F1500
G1 X36.277 Y22.091 E0.03471 F1500
G1 X36.272 Y22.339 E0.03471 F1500
G1 X36.267 Y22.587 E0.03471 F1500
G1 X36.261 Y22.835 E0.03471 F1500
G1 X36.709 Y23.267 E0.08720 F1500
G1 X37.157 Y23.700 E0.08720 F1500
G1 X37.605 Y24.133 E0.08720 F1500
G1 X38.053 Y24.566 E0.08720 F1500
G1 X38.501 Y24.998 E0.08720 F1500
G1 X38.364 Y24.872 E0.02612 F1500
G1 X38.227 Y24.746 E0.02612 F1500
G1 X38.089 Y24.620 E0.02612 F1500
G1 X37.952 Y24.493 E0.02612 F1500
G1 X37.814 Y24.367 E0.02612 F1500
G1 X37.825 Y25.081 E0.09995 F1500
G1 X37.835 Y25.795 E0.09995 F1500
G1 X37.845 Y26.509 E0.09995 F1500
G1 X37.855 Y27.223 E0.09995 F1500
G1 X37.865 Y27.936 E0.09995 F1500
G1 X37.819 Y27.881 E0.01006 F1500
G1 X37.773 Y27.826 E0.01006 F1500
G1 X37.726 Y27.771 E0.01006 F1500
G1 X37.680 Y27.716 E0.01006 F1500
G1 X37.634 Y27.662 E0.01006 F1500
G1 X37.634 Y26.943 E0.10058 F1500
G1 X37.634 Y26.225 E0.10058 F1500
G1 X37.634 Y25.506 E0.10058 F1500
G1 X37.634 Y24.788 E0.10058 F1500
G1 X37.634 Y24.069 E0.10058 F1500
G1 X38.259 Y23.446 E0.12359 F1500
G1 X38.884 Y22.823 E0.12359 F1500
G1 X39.509 Y22.200 E0.12359 F1500
G1 X40.135 Y21.576 E0.12359 F1500
G1 X40.760 Y20.953 E0.12359 F1500
G1 X40.755 Y20.705 E0.03466 F1500
G1 X40.750 Y20.458 E0.03466 F1500
G1 X40.745 Y20.210 E0.03466 F1500
G1 X40.740 Y19.963 E0.03466 F1500
G1 X40.735 Y19.715 E0.03466 F1500
G1 X40.730 Y19.468 E0.03466 F1500
G1 X40.725 Y19.220 E0.03466 F1500
G1 X40.720 Y18.973 E0.03466 F1500
G1 X40.715 Y18.725 E0.03466 F1500
G1 X40.710 Y18.478 E0.03466 F1500
G1 X40.390 Y18.755 E0.05930 F1500
G1 X40.070 Y19.033 E0.05930 F1500
G1 X39.750 Y19.310 E0.05930 F1500
G1 X39.430 Y19.588 E0.05930 F1500
G1 X39.110 Y19.865 E0.05930 F1500
G1 X39.527 Y19.504 E0.07728 F1500
G1 X39.945 Y19.143 E0.07728 F1500
G1 X40.362 Y18.781 E0.07728 F1500
G1 X40.779 Y18.420 E0.07728 F1500
G1 X41.197 Y18.058 E0.07728 F1500
G1 X41.195 Y17.580 E0.06704 F1500
G1 X41.194 Y17.101 E0.06704 F1500
G1 X41.192 Y16.622 E0.06704 F1500
G1 X41.191 Y16.143 E0.06704 F1500
G1 X41.189 Y15.664 E0.06704 F1500
G1 X41.177 Y15.507 E0.02209 F1500
G1 X41.166 Y15.349 E0.02209 F1500
G1 X41.154 Y15.192 E0.02209 F1500
G1 X41.142 Y15.035 E0.02209 F1500
G1 X41.131 Y14.877 E0.02209 F1500
G1 X40.607 Y15.185 E0.08510 F1500
G1 X40.083 Y15.493 E0.08510 F1500
G1 X39.559 Y15.801 E0.08510 F1500
G1 X39.035 Y16.109 E0.08510 F1500
G1 X38.511 Y16.418 E0.08510 F1500
G1 X39.358 Y16.649 E0.12305 F1500
G1 X40.206 Y16.881 E0.12305 F1500
G1 X41.054 Y17.112 E0.12305 F1500
G1 X41.902 Y17.344 E0.12305 F1500
G1 X42.750 Y17.576 E0.12305 F1500
G1 X42.965 Y17.449 E0.03498 F1500
G1 X43.181 Y17.323 E0.03498 F1500
G1 X43.396 Y17.196 E0.03498 F1500
G1 X43.612 Y17.070 E0.03498 F1500
G1 X43.827 Y16.944 E0.03498 F1500
G1 X44.371 Y17.130 E0.08052 F1500
G1 X44.915 Y17.317 E0.08052 F1500
G1 X45.459 Y17.504 E0.08052 F1500
G1 X46.003 Y17.690 E0.08052 F1500
G1 X46.547 Y17.877 E0.08052 F1500
G1 X47.089 Y17.560 E0.08791 F1500
G1 X47.631 Y17.242 E0.08791 F1500
G1 X48.172 Y16.924 E0.08791 F1500
G1 X48.714 Y16.607 E0.08791 F1500
G1 X49.256 Y16.289 E0.08791 F1500
G1 X48.710 Y15.978 E0.08792 F1500
G1 X48.165 Y15.667 E0.08792 F1500
G1 X47.619 Y15.356 E0.08792 F1500
G1 X47.074 Y15.045 E0.08792 F1500
G1 X46.528 Y14.733 E0.08792 F1500
G1 X45.971 Y14.934 E0.08288 F1500
G1 X45.414 Y15.134 E0.08288 F1500
G1 X44.857 Y15.335 E0.08288 F1500
G1 X44.300 Y15.535 E0.08288 F1500
G1 X43.743 Y15.735 E0.08288 F1500
G1 X38.252 Y15.797 E0.76883 F1500
G1 X32.761 Y15.859 E0.76883 F1500
G1 X27.269 Y15.921 E0.76883 F1500
G1 X21.778 Y15.983 E0.76883 F1500
G1 X16.287 Y16.045 E0.76883 F1500
G1 X16.500 Y16.167 E0.03448 F1500
G1 X16.714 Y16.290 E0.03448 F1500
G1 X16.927 Y16.413 E0.03448 F1500
G1 X17.141 Y16.536 E0.03448 F1500
G1 X17.354 Y16.658 E0.03448 F1500
G1 X17.354 Y16.027 E0.08841 F1500
G1 X17.354 Y15.395 E0.08841 F1500
G1 X17.354 Y14.764 E0.08841 F1500
G1 X17.354 Y14.132 E0.08841 F1500
G1 X17.354 Y13.501 E0.08841 F1500
G1 X16.919 Y13.133 E0.07969 F1500
G1 X16.485 Y12.766 E0.07969 F1500
G1 X16.050 Y12.399 E0.07969 F1500
G1 X15.615 Y12.031 E0.07969 F1500
G1 X15.180 Y11.664 E0.07969 F1500
G1 X15.501 Y11.934 E0.05867 F1500
G1 X15.821 Y12.204 E0.05867 F1500
G1 X16.141 Y12.474 E0.05867 F1500
G1 X16.462 Y12.745 E0.05867 F1500
G1 X16.782 Y13.015 E0.05867 F1500
G1 X16.787 Y12.766 E0.03479 F1500
G1 X16.792 Y12.518 E0.03479 F1500
G1 X16.797 Y12.269 E0.03479 F1500
G1 X16.802 Y12.021 E0.03479 F1500
G1 X16.808 Y11.772 E0.03479 F1500
G1 X16.813 Y11.524 E0.03479 F1500
G1 X16.818 Y11.275 E0.03479 F1500
G1 X16.823 Y11.027 E0.03479 F1500
G1 X16.828 Y10.779 E0.03479 F1500
G1 X16.833 Y10.530 E0.03479 F1500
G1 X16.448 Y10.160 E0.07469 F1500
G1 X16.064 Y9.790 E0.07469 F1500
G1 X15.679 Y9.421 E0.07469 F1500
G1 X15.295 Y9.051 E0.07469 F1500
G1 X14.910 Y8.681 E0.07469 F1500
G1 X14.910 Y7.942 E0.10338 F1500
G1 X14.910 Y7.204 E0.10338 F1500
G1 X14.910 Y6.466 E0.10338 F1500
G1 X14.910 Y5.727 E0.10338 F1500
G1 X14.910 Y4.989 E0.10338 F1500
G1 X14.958 Y4.941 E0.00943 F1500
G1 X15.005 Y4.893 E0.00943 F1500
G1 X15.053 Y4.846 E0.00943 F1500
G1 X15.101 Y4.798 E0.00943 F1500
G1 X15.148 Y4.751 E0.00943 F1500
G1 X17.643 Y3.800 E0.37373 F1500
G1 X20.138 Y2.850 E0.37373 F1500
G1 X22.632 Y1.900 E0.37373 F1500
G1 X25.127 Y0.950 E0.37373 F1500
G1 X27.622 Y0.000 E0.37373 F1500

; Path 3
G0 X78.000 Y45.033 F3000
G1 X62.400 Y45.033 E2.18400 F1500
G1 X46.800 Y45.033 E2.18400 F1500
G1 X31.200 Y45.033 E2.18400 F1500
G1 X15.600 Y45.033 E2.18400 F1500
G1 X0.000 Y45.033 E2.18400 F1500
G1 X0.000 Y36.027 E1.26093 F1500
G1 X0.000 Y27.020 E1.26093 F1500
G1 X0.000 Y18.013 E1.26093 F1500
G1 X0.000 Y9.007 E1.26093 F1500
G1 X0.000 Y0.000 E1.26093 F1500
G1 X15.600 Y0.000 E2.18400 F1500
G1 X31.200 Y0.000 E2.18400 F1500
G1 X46.800 Y0.000 E2.18400 F1500
G1 X62.400 Y0.000 E2.18400 F1500
G1 X78.000 Y0.000 E2.18400 F1500
G1 X78.000 Y9.007 E1.26093 F1500
G1 X78.000 Y18.013 E1.26093 F1500
G1 X78.000 Y27.020 E1.26093 F1500
G1 X78.000 Y36.027 E1.26093 F1500
G1 X78.000 Y45.033 E1.26093 F1500

; End of print
G0 Z5 F1000 ; Lift nozzle
G0 X0 Y0 F3000 ; Return to origin
M400 ; Wait for moves to finish
M84 ; Disable motors