; MugBot GCODE - Generated by MugBot UI
; Date: 2025-12-03T18:18:43.238Z
; X Range: 280mm
; Y Range: 80mm
; Extrusion Rate: 1
; Z Position: 0mm (fixed)

G21 ; Set units to millimeters
G90 ; Absolute positioning
M83 ; Relative extrusion mode
G92 E0 ; Reset extruder position
M221 S100 ; Set extrusion multiplier to 100%

; Move to start position
G0 Z0 F3000 ; Set Z to 0
G0 X0 Y0 F3000 ; Move to origin

; Path 1
G0 X0.000 Y0.000 F3000

; Path 2
G0 X61.281 Y53.589 F3000
G1 X61.246 Y55.690 E0.21013 F1500
G1 X61.139 Y57.842 E0.21543 F1500
G1 X60.962 Y60.044 E0.22094 F1500
G1 X60.714 Y62.297 E0.22665 F1500
G1 X60.395 Y64.600 E0.23255 F1500
G1 X60.315 Y64.928 E0.03377 F1500
G1 X60.197 Y65.184 E0.02813 F1500
G1 X60.040 Y65.366 E0.02405 F1500
G1 X59.844 Y65.475 E0.02239 F1500
G1 X59.610 Y65.512 E0.02367 F1500
G1 X59.594 Y65.500 E0.00197 F1500
G1 X59.221 Y65.467 E0.03741 F1500
G1 X58.492 Y65.411 E0.07312 F1500
G1 X57.407 Y65.333 E0.10882 F1500
G1 X55.965 Y65.233 E0.14453 F1500
G1 X53.750 Y65.078 E0.22209 F1500
G1 X51.720 Y64.958 E0.20327 F1500
G1 X49.878 Y64.872 E0.18448 F1500
G1 X48.221 Y64.820 E0.16573 F1500
G1 X46.751 Y64.803 E0.14703 F1500
G1 X45.938 Y64.807 E0.08131 F1500
G1 X44.977 Y64.819 E0.09610 F1500
G1 X43.868 Y64.839 E0.11089 F1500
G1 X42.612 Y64.868 E0.12569 F1500
G1 X41.207 Y64.904 E0.14049 F1500
G1 X39.803 Y64.940 E0.14049 F1500
G1 X38.546 Y64.969 E0.12569 F1500
G1 X37.437 Y64.989 E0.11089 F1500
G1 X36.477 Y65.001 E0.09610 F1500
G1 X35.663 Y65.005 E0.08131 F1500
G1 X35.378 Y64.966 E0.02883 F1500
G1 X35.149 Y64.847 E0.02577 F1500
G1 X34.977 Y64.650 E0.02619 F1500
G1 X34.862 Y64.373 E0.02996 F1500
G1 X34.803 Y64.018 E0.03602 F1500
G1 X34.821 Y64.174 E0.01570 F1500
G1 X34.835 Y64.075 E0.01002 F1500
G1 X34.845 Y63.720 E0.03545 F1500
G1 X34.851 Y63.111 E0.06096 F1500
G1 X34.853 Y62.246 E0.08647 F1500
G1 X34.848 Y59.335 E0.29111 F1500
G1 X34.843 Y56.424 E0.29111 F1500
G1 X34.838 Y53.513 E0.29111 F1500
G1 X34.833 Y50.602 E0.29111 F1500
G1 X34.828 Y47.691 E0.29111 F1500
G1 X34.818 Y46.454 E0.12364 F1500
G1 X34.788 Y44.953 E0.15019 F1500
G1 X34.737 Y43.186 E0.17676 F1500
G1 X34.666 Y41.154 E0.20334 F1500
G1 X34.575 Y38.856 E0.22993 F1500
G1 X34.493 Y36.633 E0.22251 F1500
G1 X34.429 Y34.640 E0.19937 F1500
G1 X34.384 Y32.878 E0.17624 F1500
G1 X34.356 Y31.347 E0.15312 F1500
G1 X34.347 Y30.047 E0.13001 F1500
G1 X34.371 Y29.847 E0.02020 F1500
G1 X34.444 Y29.691 E0.01721 F1500
G1 X34.566 Y29.579 E0.01648 F1500
G1 X34.736 Y29.512 E0.01828 F1500
G1 X34.955 Y29.490 E0.02198 F1500
G1 X35.423 Y29.494 E0.04678 F1500
G1 X35.975 Y29.506 E0.05530 F1500
G1 X36.613 Y29.527 E0.06382 F1500
G1 X37.336 Y29.555 E0.07235 F1500
G1 X38.144 Y29.591 E0.08088 F1500
G1 X38.961 Y29.628 E0.08179 F1500
G1 X39.691 Y29.656 E0.07306 F1500
G1 X40.334 Y29.676 E0.06433 F1500
G1 X40.890 Y29.689 E0.05560 F1500
G1 X41.359 Y29.693 E0.04688 F1500
G1 X41.859 Y29.689 E0.05002 F1500
G1 X42.449 Y29.676 E0.05894 F1500
G1 X43.127 Y29.656 E0.06787 F1500
G1 X43.895 Y29.628 E0.07680 F1500
G1 X44.751 Y29.591 E0.08574 F1500
G1 X45.608 Y29.546 E0.08578 F1500
G1 X46.375 Y29.510 E0.07683 F1500
G1 X47.054 Y29.485 E0.06789 F1500
G1 X47.643 Y29.470 E0.05895 F1500
G1 X48.143 Y29.465 E0.05002 F1500
G1 X48.289 Y29.486 E0.01473 F1500
G1 X48.402 Y29.550 E0.01301 F1500
G1 X48.483 Y29.656 E0.01337 F1500
G1 X48.532 Y29.805 E0.01566 F1500
G1 X48.548 Y29.996 E0.01921 F1500
G1 X48.543 Y30.052 E0.00559 F1500
G1 X48.538 Y30.108 E0.00559 F1500
G1 X48.533 Y30.163 E0.00559 F1500
G1 X48.528 Y30.219 E0.00559 F1500
G1 X48.523 Y30.275 E0.00559 F1500
G1 X48.388 Y32.158 E0.18881 F1500
G1 X48.247 Y34.386 E0.22320 F1500
G1 X48.101 Y36.958 E0.25761 F1500
G1 X47.948 Y39.874 E0.29201 F1500
G1 X47.789 Y43.134 E0.32643 F1500
G1 X47.771 Y44.395 E0.12608 F1500
G1 X47.756 Y45.544 E0.11493 F1500
G1 X47.746 Y46.582 E0.10379 F1500
G1 X47.740 Y47.508 E0.09265 F1500
G1 X47.738 Y48.324 E0.08151 F1500
G1 X47.742 Y49.202 E0.08789 F1500
G1 X47.754 Y50.138 E0.09357 F1500
G1 X47.775 Y51.130 E0.09925 F1500
G1 X47.803 Y52.179 E0.10494 F1500
G1 X47.839 Y53.285 E0.11063 F1500
G1 X47.873 Y53.640 E0.03570 F1500
G1 X47.933 Y53.917 E0.02828 F1500
G1 X48.019 Y54.114 E0.02154 F1500
G1 X48.131 Y54.233 E0.01633 F1500
G1 X48.270 Y54.272 E0.01442 F1500
G1 X49.362 Y54.260 E0.10926 F1500
G1 X50.493 Y54.224 E0.11316 F1500
G1 X51.663 Y54.163 E0.11711 F1500
G1 X52.871 Y54.078 E0.12110 F1500
G1 X54.117 Y53.969 E0.12512 F1500
G1 X55.521 Y53.816 E0.14117 F1500
G1 X56.855 Y53.640 E0.13460 F1500
G1 X58.121 Y53.443 E0.12810 F1500
G1 X59.318 Y53.223 E0.12168 F1500
G1 X60.446 Y52.981 E0.11536 F1500
G1 X60.534 Y52.963 E0.00900 F1500
G1 X60.616 Y52.949 E0.00832 F1500
G1 X60.692 Y52.939 E0.00766 F1500
G1 X60.762 Y52.933 E0.00701 F1500
G1 X60.825 Y52.931 E0.00638 F1500
G1 X60.989 Y52.957 E0.01661 F1500
G1 X61.117 Y53.036 E0.01500 F1500
G1 X61.208 Y53.168 E0.01601 F1500
G1 X61.263 Y53.352 E0.01922 F1500
G1 X61.281 Y53.589 E0.02376 F1500
G1 X61.281 Y53.589 E0.00000 F1500
G1 X61.281 Y53.589 E0.00000 F1500
G1 X61.281 Y53.589 E0.00000 F1500
G1 X61.281 Y53.589 E0.00000 F1500
G1 X61.281 Y53.589 E0.00000 F1500

; Path 3
G0 X102.036 Y25.896 F3000
G1 X102.026 Y27.188 E0.12921 F1500
G1 X101.996 Y28.715 E0.15272 F1500
G1 X101.945 Y30.476 E0.17626 F1500
G1 X101.874 Y32.473 E0.19980 F1500
G1 X101.783 Y34.705 E0.22335 F1500
G1 X101.701 Y36.927 E0.22241 F1500
G1 X101.637 Y38.917 E0.19907 F1500
G1 X101.592 Y40.674 E0.17574 F1500
G1 X101.564 Y42.198 E0.15241 F1500
G1 X101.555 Y43.489 E0.12910 F1500
G1 X101.556 Y43.855 E0.03665 F1500
G1 X101.559 Y44.287 E0.04314 F1500
G1 X101.564 Y44.783 E0.04962 F1500
G1 X101.571 Y45.344 E0.05610 F1500
G1 X101.580 Y45.969 E0.06258 F1500
G1 X101.590 Y46.595 E0.06258 F1500
G1 X101.597 Y47.156 E0.05610 F1500
G1 X101.602 Y47.652 E0.04962 F1500
G1 X101.605 Y48.084 E0.04314 F1500
G1 X101.606 Y48.450 E0.03665 F1500
G1 X101.525 Y51.078 E0.26288 F1500
G1 X101.282 Y53.331 E0.22660 F1500
G1 X100.877 Y55.209 E0.19214 F1500
G1 X100.310 Y56.713 E0.16070 F1500
G1 X99.581 Y57.842 E0.13439 F1500
G1 X98.006 Y59.154 E0.20497 F1500
G1 X95.733 Y60.174 E0.24918 F1500
G1 X92.761 Y60.903 E0.30599 F1500
G1 X89.091 Y61.341 E0.36965 F1500
G1 X84.721 Y61.487 E0.43716 F1500
G1 X82.197 Y61.433 E0.25249 F1500
G1 X79.950 Y61.272 E0.22526 F1500
G1 X77.981 Y61.004 E0.19876 F1500
G1 X76.289 Y60.628 E0.17332 F1500
G1 X74.874 Y60.145 E0.14947 F1500
G1 X73.759 Y59.572 E0.12544 F1500
G1 X72.801 Y58.865 E0.11904 F1500
G1 X72.001 Y58.025 E0.11602 F1500
G1 X71.359 Y57.051 E0.11666 F1500
G1 X70.875 Y55.943 E0.12088 F1500
G1 X70.601 Y54.925 E0.10537 F1500
G1 X70.389 Y53.675 E0.12684 F1500
G1 X70.237 Y52.191 E0.14911 F1500
G1 X70.146 Y50.475 E0.17187 F1500
G1 X70.115 Y48.526 E0.19494 F1500
G1 X70.116 Y48.195 E0.03311 F1500
G1 X70.120 Y47.789 E0.04060 F1500
G1 X70.125 Y47.308 E0.04810 F1500
G1 X70.132 Y46.752 E0.05559 F1500
G1 X70.141 Y46.121 E0.06309 F1500
G1 X70.141 Y45.481 E0.06399 F1500
G1 X70.141 Y44.898 E0.05832 F1500
G1 X70.141 Y44.372 E0.05265 F1500
G1 X70.141 Y43.902 E0.04698 F1500
G1 X70.141 Y43.489 E0.04131 F1500
G1 X70.131 Y42.197 E0.12921 F1500
G1 X70.100 Y40.670 E0.15272 F1500
G1 X70.050 Y38.908 E0.17626 F1500
G1 X69.979 Y36.911 E0.19980 F1500
G1 X69.888 Y34.679 E0.22335 F1500
G1 X69.806 Y32.439 E0.22423 F1500
G1 X69.742 Y30.435 E0.20048 F1500
G1 X69.696 Y28.668 E0.17675 F1500
G1 X69.669 Y27.138 E0.15302 F1500
G1 X69.660 Y25.845 E0.12931 F1500
G1 X69.684 Y25.644 E0.02020 F1500
G1 X69.757 Y25.489 E0.01721 F1500
G1 X69.879 Y25.377 E0.01648 F1500
G1 X70.049 Y25.310 E0.01828 F1500
G1 X70.267 Y25.288 E0.02198 F1500
G1 X71.093 Y25.290 E0.08252 F1500
G1 X72.070 Y25.296 E0.09771 F1500
G1 X73.199 Y25.306 E0.11290 F1500
G1 X74.480 Y25.320 E0.12810 F1500
G1 X75.912 Y25.339 E0.14329 F1500
G1 X77.354 Y25.357 E0.14420 F1500
G1 X78.642 Y25.371 E0.12880 F1500
G1 X79.776 Y25.381 E0.11341 F1500
G1 X80.756 Y25.387 E0.09802 F1500
G1 X81.583 Y25.389 E0.08262 F1500
G1 X82.151 Y25.388 E0.05680 F1500
G1 X82.559 Y25.385 E0.04081 F1500
G1 X82.807 Y25.380 E0.02481 F1500
G1 X82.895 Y25.373 E0.00884 F1500
G1 X82.823 Y25.364 E0.00725 F1500
G1 X83.133 Y25.411 E0.03133 F1500
G1 X83.374 Y25.490 E0.02536 F1500
G1 X83.546 Y25.601 E0.02050 F1500
G1 X83.649 Y25.745 E0.01770 F1500
G1 X83.684 Y25.921 E0.01795 F1500
G1 X83.672 Y27.203 E0.12819 F1500
G1 X83.639 Y28.720 E0.15172 F1500
G1 X83.583 Y30.471 E0.17526 F1500
G1 X83.505 Y32.458 E0.19882 F1500
G1 X83.405 Y34.679 E0.22238 F1500
G1 X83.314 Y36.901 E0.22234 F1500
G1 X83.243 Y38.888 E0.19879 F1500
G1 X83.193 Y40.639 E0.17524 F1500
G1 X83.162 Y42.156 E0.15171 F1500
G1 X83.152 Y43.438 E0.12819 F1500
G1 X83.151 Y43.589 E0.01509 F1500
G1 X83.148 Y43.778 E0.01894 F1500
G1 X83.143 Y44.006 E0.02279 F1500
G1 X83.136 Y44.272 E0.02664 F1500
G1 X83.127 Y44.577 E0.03049 F1500
G1 X83.118 Y44.886 E0.03090 F1500
G1 X83.111 Y45.164 E0.02785 F1500
G1 X83.105 Y45.412 E0.02481 F1500
G1 X83.102 Y45.630 E0.02177 F1500
G1 X83.101 Y45.818 E0.01873 F1500
G1 X83.222 Y47.576 E0.17629 F1500
G1 X83.583 Y48.944 E0.14149 F1500
G1 X84.186 Y49.921 E0.11479 F1500
G1 X85.029 Y50.508 E0.10272 F1500
G1 X86.114 Y50.703 E0.11019 F1500
G1 X86.998 Y50.552 E0.08967 F1500
G1 X87.685 Y50.100 E0.08231 F1500
G1 X88.176 Y49.345 E0.09001 F1500
G1 X88.471 Y48.289 E0.10964 F1500
G1 X88.569 Y46.931 E0.13614 F1500
G1 X88.560 Y45.416 E0.15158 F1500
G1 X88.533 Y43.622 E0.17934 F1500
G1 X88.487 Y41.552 E0.20712 F1500
G1 X88.423 Y39.204 E0.23490 F1500
G1 X88.341 Y36.578 E0.26268 F1500
G1 X88.268 Y33.952 E0.26266 F1500
G1 X88.212 Y31.604 E0.23488 F1500
G1 X88.171 Y29.534 E0.20711 F1500
G1 X88.147 Y27.740 E0.17934 F1500
G1 X88.139 Y26.225 E0.15158 F1500
G1 X88.156 Y25.950 E0.02749 F1500
G1 X88.208 Y25.735 E0.02218 F1500
G1 X88.294 Y25.578 E0.01790 F1500
G1 X88.414 Y25.479 E0.01555 F1500
G1 X88.569 Y25.440 E0.01599 F1500
G1 X88.987 Y25.407 E0.04195 F1500
G1 X89.513 Y25.387 E0.05259 F1500
G1 X90.146 Y25.382 E0.06329 F1500
G1 X90.886 Y25.391 E0.07402 F1500
G1 X91.733 Y25.415 E0.08478 F1500
G1 X92.837 Y25.442 E0.11040 F1500
G1 X93.718 Y25.463 E0.08812 F1500
G1 X94.376 Y25.478 E0.06583 F1500
G1 X94.812 Y25.488 E0.04355 F1500
G1 X95.024 Y25.491 E0.02127 F1500
G1 X95.492 Y25.487 E0.04678 F1500
G1 X96.045 Y25.474 E0.05530 F1500
G1 X96.683 Y25.454 E0.06382 F1500
G1 X97.406 Y25.426 E0.07235 F1500
G1 X98.214 Y25.389 E0.08088 F1500
G1 X99.022 Y25.353 E0.08088 F1500
G1 X99.745 Y25.325 E0.07235 F1500
G1 X100.383 Y25.304 E0.06382 F1500
G1 X100.935 Y25.292 E0.05530 F1500
G1 X101.403 Y25.288 E0.04678 F1500
G1 X101.631 Y25.312 E0.02291 F1500
G1 X101.808 Y25.385 E0.01916 F1500
G1 X101.935 Y25.507 E0.01755 F1500
G1 X102.011 Y25.677 E0.01863 F1500
G1 X102.036 Y25.896 E0.02202 F1500
G1 X102.036 Y25.896 E0.00000 F1500
G1 X102.036 Y25.896 E0.00000 F1500
G1 X102.036 Y25.896 E0.00000 F1500
G1 X102.036 Y25.896 E0.00000 F1500
G1 X102.036 Y25.896 E0.00000 F1500

; Path 4
G0 X135.931 Y33.262 F3000
G1 X135.835 Y33.626 E0.03770 F1500
G1 X135.546 Y34.295 E0.07279 F1500
G1 X135.065 Y35.267 E0.10845 F1500
G1 X134.392 Y36.543 E0.14426 F1500
G1 X133.526 Y38.122 E0.18013 F1500
G1 X132.650 Y39.687 E0.17929 F1500
G1 X131.927 Y40.937 E0.14450 F1500
G1 X131.354 Y41.874 E0.10975 F1500
G1 X130.934 Y42.496 E0.07512 F1500
G1 X130.666 Y42.805 E0.04091 F1500
G1 X130.516 Y42.915 E0.01855 F1500
G1 X130.370 Y43.000 E0.01688 F1500
G1 X130.228 Y43.060 E0.01542 F1500
G1 X130.091 Y43.097 E0.01424 F1500
G1 X129.957 Y43.109 E0.01342 F1500
G1 X129.872 Y43.076 E0.00914 F1500
G1 X129.718 Y42.975 E0.01837 F1500
G1 X129.495 Y42.808 E0.02785 F1500
G1 X129.204 Y42.574 E0.03738 F1500
G1 X128.843 Y42.274 E0.04694 F1500
G1 X128.370 Y41.897 E0.06045 F1500
G1 X127.904 Y41.557 E0.05776 F1500
G1 X127.443 Y41.253 E0.05518 F1500
G1 X126.988 Y40.986 E0.05274 F1500
G1 X126.540 Y40.755 E0.05045 F1500
G1 X125.843 Y40.463 E0.07552 F1500
G1 X125.130 Y40.236 E0.07480 F1500
G1 X124.401 Y40.074 E0.07468 F1500
G1 X123.656 Y39.977 E0.07515 F1500
G1 X122.895 Y39.945 E0.07621 F1500
G1 X121.952 Y40.016 E0.09453 F1500
G1 X121.068 Y40.228 E0.09092 F1500
G1 X120.243 Y40.583 E0.08981 F1500
G1 X119.476 Y41.079 E0.09131 F1500
G1 X118.768 Y41.717 E0.09528 F1500
G1 X118.167 Y42.443 E0.09428 F1500
G1 X117.699 Y43.223 E0.09101 F1500
G1 X117.365 Y44.059 E0.08997 F1500
G1 X117.165 Y44.949 E0.09123 F1500
G1 X117.098 Y45.893 E0.09471 F1500
G1 X117.165 Y46.849 E0.09582 F1500
G1 X117.365 Y47.752 E0.09252 F1500
G1 X117.699 Y48.603 E0.09138 F1500
G1 X118.167 Y49.401 E0.09249 F1500
G1 X118.768 Y50.146 E0.09577 F1500
G1 X119.476 Y50.784 E0.09528 F1500
G1 X120.243 Y51.280 E0.09131 F1500
G1 X121.068 Y51.635 E0.08981 F1500
G1 X121.952 Y51.847 E0.09092 F1500
G1 X122.895 Y51.918 E0.09453 F1500
G1 X124.450 Y51.821 E0.15583 F1500
G1 X125.855 Y51.529 E0.14354 F1500
G1 X127.111 Y51.043 E0.13463 F1500
G1 X128.217 Y50.363 E0.12983 F1500
G1 X129.172 Y49.488 E0.12958 F1500
G1 X129.307 Y49.342 E0.01985 F1500
G1 X129.428 Y49.229 E0.01655 F1500
G1 X129.534 Y49.148 E0.01337 F1500
G1 X129.626 Y49.099 E0.01042 F1500
G1 X129.704 Y49.083 E0.00796 F1500
G1 X129.925 Y49.247 E0.02750 F1500
G1 X130.344 Y49.739 E0.06464 F1500
G1 X130.962 Y50.559 E0.10267 F1500
G1 X131.778 Y51.707 E0.14087 F1500
G1 X132.792 Y53.184 E0.17913 F1500
G1 X133.804 Y54.725 E0.18434 F1500
G1 X134.591 Y55.987 E0.14868 F1500
G1 X135.152 Y56.969 E0.11316 F1500
G1 X135.490 Y57.671 E0.07794 F1500
G1 X135.602 Y58.095 E0.04379 F1500
G1 X135.579 Y58.298 E0.02049 F1500
G1 X135.509 Y58.524 E0.02364 F1500
G1 X135.392 Y58.772 E0.02740 F1500
G1 X135.229 Y59.042 E0.03157 F1500
G1 X135.020 Y59.335 E0.03599 F1500
G1 X134.153 Y60.323 E0.13145 F1500
G1 X133.153 Y61.222 E0.13451 F1500
G1 X132.019 Y62.032 E0.13936 F1500
G1 X130.751 Y62.753 E0.14584 F1500
G1 X129.350 Y63.385 E0.15372 F1500
G1 X128.014 Y63.868 E0.14202 F1500
G1 X126.660 Y64.244 E0.14049 F1500
G1 X125.288 Y64.512 E0.13980 F1500
G1 X123.898 Y64.673 E0.13995 F1500
G1 X122.490 Y64.727 E0.14095 F1500
G1 X119.454 Y64.510 E0.30433 F1500
G1 X116.605 Y63.860 E0.29225 F1500
G1 X113.942 Y62.777 E0.28750 F1500
G1 X111.465 Y61.260 E0.29043 F1500
G1 X109.175 Y59.310 E0.30082 F1500
G1 X107.206 Y57.039 E0.30054 F1500
G1 X105.675 Y54.579 E0.28971 F1500
G1 X104.582 Y51.931 E0.28647 F1500
G1 X103.925 Y49.095 E0.29111 F1500
G1 X103.707 Y46.071 E0.30324 F1500
G1 X103.925 Y43.036 E0.30425 F1500
G1 X104.582 Y40.190 E0.29209 F1500
G1 X105.675 Y37.532 E0.28741 F1500
G1 X107.206 Y35.062 E0.29057 F1500
G1 X109.175 Y32.781 E0.30131 F1500
G1 X111.465 Y30.803 E0.30260 F1500
G1 X113.942 Y29.265 E0.29154 F1500
G1 X116.605 Y28.167 E0.28807 F1500
G1 X119.454 Y27.508 E0.29246 F1500
G1 X122.490 Y27.288 E0.30436 F1500
G1 X125.522 Y27.485 E0.30390 F1500
G1 X128.322 Y28.078 E0.28617 F1500
G1 X130.889 Y29.065 E0.27501 F1500
G1 X133.223 Y30.447 E0.27125 F1500
G1 X135.324 Y32.224 E0.27518 F1500
G1 X135.542 Y32.452 E0.03158 F1500
G1 X135.712 Y32.670 E0.02763 F1500
G1 X135.834 Y32.877 E0.02405 F1500
G1 X135.907 Y33.075 E0.02105 F1500
G1 X135.931 Y33.262 E0.01889 F1500
G1 X135.931 Y33.262 E0.00000 F1500
G1 X135.931 Y33.262 E0.00000 F1500
G1 X135.931 Y33.262 E0.00000 F1500
G1 X135.931 Y33.262 E0.00000 F1500
G1 X135.931 Y33.262 E0.00000 F1500

; Path 5
G0 X164.207 Y22.428 F3000
G1 X164.202 Y23.030 E0.06025 F1500
G1 X164.186 Y23.744 E0.07140 F1500
G1 X164.161 Y24.569 E0.08256 F1500
G1 X164.126 Y25.506 E0.09373 F1500
G1 X164.080 Y26.554 E0.10490 F1500
G1 X164.034 Y27.602 E0.10490 F1500
G1 X163.999 Y28.538 E0.09373 F1500
G1 X163.974 Y29.364 E0.08256 F1500
G1 X163.958 Y30.077 E0.07140 F1500
G1 X163.953 Y30.680 E0.06025 F1500
G1 X163.938 Y31.204 E0.05247 F1500
G1 X163.893 Y31.684 E0.04821 F1500
G1 X163.817 Y32.120 E0.04420 F1500
G1 X163.710 Y32.511 E0.04050 F1500
G1 X163.574 Y32.857 E0.03723 F1500
G1 X162.094 Y36.009 E0.34819 F1500
G1 X160.552 Y38.965 E0.33337 F1500
G1 X158.947 Y41.724 E0.31920 F1500
G1 X157.280 Y44.287 E0.30576 F1500
G1 X155.549 Y46.653 E0.29315 F1500
G1 X155.212 Y47.119 E0.05750 F1500
G1 X154.950 Y47.544 E0.04996 F1500
G1 X154.763 Y47.929 E0.04279 F1500
G1 X154.650 Y48.273 E0.03621 F1500
G1 X154.613 Y48.577 E0.03061 F1500
G1 X154.620 Y49.167 E0.05904 F1500
G1 X154.641 Y49.865 E0.06980 F1500
G1 X154.676 Y50.670 E0.08058 F1500
G1 X154.726 Y51.582 E0.09137 F1500
G1 X154.790 Y52.602 E0.10216 F1500
G1 X154.854 Y53.620 E0.10206 F1500
G1 X154.903 Y54.529 E0.09106 F1500
G1 X154.939 Y55.329 E0.08007 F1500
G1 X154.960 Y56.020 E0.06909 F1500
G1 X154.967 Y56.601 E0.05812 F1500
G1 X154.938 Y56.875 E0.02750 F1500
G1 X154.850 Y57.087 E0.02302 F1500
G1 X154.703 Y57.239 E0.02112 F1500
G1 X154.497 Y57.330 E0.02248 F1500
G1 X154.233 Y57.361 E0.02660 F1500
G1 X153.753 Y57.357 E0.04800 F1500
G1 X153.184 Y57.344 E0.05692 F1500
G1 X152.526 Y57.324 E0.06585 F1500
G1 X151.779 Y57.296 E0.07478 F1500
G1 X150.942 Y57.259 E0.08372 F1500
G1 X150.115 Y57.214 E0.08285 F1500
G1 X149.375 Y57.178 E0.07410 F1500
G1 X148.722 Y57.153 E0.06536 F1500
G1 X148.156 Y57.138 E0.05662 F1500
G1 X147.677 Y57.133 E0.04790 F1500
G1 X147.210 Y57.137 E0.04668 F1500
G1 X146.660 Y57.149 E0.05499 F1500
G1 X146.027 Y57.169 E0.06332 F1500
G1 X145.311 Y57.198 E0.07164 F1500
G1 X144.512 Y57.234 E0.07997 F1500
G1 X143.724 Y57.270 E0.07896 F1500
G1 X143.018 Y57.299 E0.07063 F1500
G1 X142.395 Y57.319 E0.06230 F1500
G1 X141.856 Y57.331 E0.05398 F1500
G1 X141.399 Y57.335 E0.04567 F1500
G1 X141.098 Y57.306 E0.03022 F1500
G1 X140.864 Y57.218 E0.02499 F1500
G1 X140.697 Y57.071 E0.02224 F1500
G1 X140.597 Y56.865 E0.02287 F1500
G1 X140.564 Y56.601 E0.02664 F1500
G1 X140.574 Y56.020 E0.05813 F1500
G1 X140.604 Y55.329 E0.06912 F1500
G1 X140.655 Y54.529 E0.08015 F1500
G1 X140.726 Y53.620 E0.09120 F1500
G1 X140.817 Y52.602 E0.10227 F1500
G1 X140.908 Y51.582 E0.10237 F1500
G1 X140.979 Y50.670 E0.09151 F1500
G1 X141.029 Y49.865 E0.08066 F1500
G1 X141.060 Y49.167 E0.06983 F1500
G1 X141.070 Y48.577 E0.05904 F1500
G1 X141.046 Y48.236 E0.03411 F1500
G1 X140.973 Y47.864 E0.03797 F1500
G1 X140.851 Y47.459 E0.04229 F1500
G1 X140.681 Y47.021 E0.04693 F1500
G1 X140.462 Y46.552 E0.05182 F1500
G1 X139.804 Y45.515 E0.12281 F1500
G1 X139.045 Y44.308 E0.14260 F1500
G1 X138.184 Y42.931 E0.16239 F1500
G1 X137.222 Y41.384 E0.18218 F1500
G1 X136.159 Y39.666 E0.20198 F1500
G1 X135.506 Y38.540 E0.13017 F1500
G1 X134.843 Y37.370 E0.13453 F1500
G1 X134.169 Y36.155 E0.13892 F1500
G1 X133.486 Y34.895 E0.14331 F1500
G1 X132.792 Y33.591 E0.14771 F1500
G1 X132.591 Y33.188 E0.04506 F1500
G1 X132.432 Y32.809 E0.04107 F1500
G1 X132.315 Y32.455 E0.03730 F1500
G1 X132.241 Y32.125 E0.03383 F1500
G1 X132.210 Y31.819 E0.03074 F1500
G1 X132.189 Y31.200 E0.06190 F1500
G1 X132.145 Y30.438 E0.07637 F1500
G1 X132.079 Y29.532 E0.09086 F1500
G1 X131.991 Y28.482 E0.10537 F1500
G1 X131.881 Y27.288 E0.11989 F1500
G1 X131.781 Y26.167 E0.11254 F1500
G1 X131.703 Y25.153 E0.10166 F1500
G1 X131.647 Y24.247 E0.09079 F1500
G1 X131.614 Y23.448 E0.07996 F1500
G1 X131.602 Y22.757 E0.06917 F1500
G1 X131.626 Y22.420 E0.03380 F1500
G1 X131.696 Y22.157 E0.02714 F1500
G1 X131.812 Y21.970 E0.02206 F1500
G1 X131.975 Y21.858 E0.01980 F1500
G1 X132.185 Y21.820 E0.02129 F1500
G1 X132.619 Y21.824 E0.04344 F1500
G1 X133.132 Y21.836 E0.05135 F1500
G1 X133.725 Y21.857 E0.05927 F1500
G1 X134.396 Y21.885 E0.06719 F1500
G1 X135.146 Y21.921 E0.07512 F1500
G1 X135.906 Y21.958 E0.07603 F1500
G1 X136.584 Y21.986 E0.06790 F1500
G1 X137.182 Y22.006 E0.05977 F1500
G1 X137.698 Y22.019 E0.05165 F1500
G1 X138.133 Y22.023 E0.04354 F1500
G1 X138.659 Y22.019 E0.05255 F1500
G1 X139.284 Y22.006 E0.06249 F1500
G1 X140.008 Y21.986 E0.07243 F1500
G1 X140.831 Y21.958 E0.08237 F1500
G1 X141.753 Y21.921 E0.09232 F1500
G1 X142.676 Y21.876 E0.09236 F1500
G1 X143.499 Y21.840 E0.08240 F1500
G1 X144.223 Y21.815 E0.07244 F1500
G1 X144.848 Y21.800 E0.06249 F1500
G1 X145.373 Y21.795 E0.05255 F1500
G1 X145.510 Y21.817 E0.01385 F1500
G1 X145.616 Y21.884 E0.01256 F1500
G1 X145.692 Y21.995 E0.01348 F1500
G1 X145.738 Y22.151 E0.01625 F1500
G1 X145.753 Y22.352 E0.02011 F1500
G1 X145.716 Y23.846 E0.14950 F1500
G1 X145.688 Y25.333 E0.14867 F1500
G1 X145.668 Y26.811 E0.14785 F1500
G1 X145.656 Y28.281 E0.14703 F1500
G1 X145.652 Y29.743 E0.14621 F1500
G1 X145.688 Y30.035 E0.02939 F1500
G1 X145.797 Y30.403 E0.03844 F1500
G1 X145.980 Y30.849 E0.04814 F1500
G1 X146.235 Y31.371 E0.05815 F1500
G1 X146.563 Y31.971 E0.06833 F1500
G1 X146.869 Y32.497 E0.06089 F1500
G1 X147.158 Y32.963 E0.05485 F1500
G1 X147.432 Y33.368 E0.04887 F1500
G1 X147.689 Y33.712 E0.04297 F1500
G1 X147.930 Y33.996 E0.03721 F1500
G1 X148.161 Y33.716 E0.03633 F1500
G1 X148.408 Y33.380 E0.04164 F1500
G1 X148.671 Y32.991 E0.04704 F1500
G1 X148.950 Y32.546 E0.05251 F1500
G1 X149.246 Y32.047 E0.05802 F1500
G1 X149.556 Y31.476 E0.06497 F1500
G1 X149.797 Y30.978 E0.05534 F1500
G1 X149.969 Y30.552 E0.04588 F1500
G1 X150.072 Y30.200 E0.03672 F1500
G1 X150.107 Y29.920 E0.02816 F1500
G1 X150.100 Y29.364 E0.05569 F1500
G1 X150.078 Y28.705 E0.06585 F1500
G1 X150.043 Y27.946 E0.07602 F1500
G1 X149.993 Y27.085 E0.08621 F1500
G1 X149.930 Y26.123 E0.09640 F1500
G1 X149.875 Y25.163 E0.09625 F1500
G1 X149.832 Y24.305 E0.08587 F1500
G1 X149.802 Y23.551 E0.07550 F1500
G1 X149.784 Y22.899 E0.06513 F1500
G1 X149.778 Y22.352 E0.05478 F1500
G1 X149.793 Y22.151 E0.02011 F1500
G1 X149.839 Y21.995 E0.01625 F1500
G1 X149.914 Y21.884 E0.01348 F1500
G1 X150.021 Y21.817 E0.01256 F1500
G1 X150.157 Y21.795 E0.01385 F1500
G1 X150.636 Y21.800 E0.04790 F1500
G1 X151.202 Y21.815 E0.05662 F1500
G1 X151.856 Y21.840 E0.06536 F1500
G1 X152.596 Y21.876 E0.07410 F1500
G1 X153.423 Y21.921 E0.08285 F1500
G1 X154.250 Y21.958 E0.08281 F1500
G1 X154.990 Y21.986 E0.07407 F1500
G1 X155.643 Y22.006 E0.06534 F1500
G1 X156.209 Y22.019 E0.05661 F1500
G1 X156.688 Y22.023 E0.04790 F1500
G1 X157.191 Y22.019 E0.05022 F1500
G1 X157.786 Y22.006 E0.05955 F1500
G1 X158.475 Y21.986 E0.06888 F1500
G1 X159.256 Y21.958 E0.07822 F1500
G1 X160.131 Y21.921 E0.08756 F1500
G1 X161.006 Y21.885 E0.08756 F1500
G1 X161.788 Y21.857 E0.07822 F1500
G1 X162.476 Y21.836 E0.06888 F1500
G1 X163.072 Y21.824 E0.05955 F1500
G1 X163.574 Y21.820 E0.05022 F1500
G1 X163.802 Y21.844 E0.02291 F1500
G1 X163.979 Y21.917 E0.01916 F1500
G1 X164.105 Y22.039 E0.01755 F1500
G1 X164.181 Y22.209 E0.01863 F1500
G1 X164.207 Y22.428 E0.02202 F1500
G1 X164.207 Y22.428 E0.00000 F1500
G1 X164.207 Y22.428 E0.00000 F1500
G1 X164.207 Y22.428 E0.00000 F1500
G1 X164.207 Y22.428 E0.00000 F1500
G1 X164.207 Y22.428 E0.00000 F1500

; Path 6
G0 X173.598 Y27.642 F3000
G1 X173.590 Y28.710 E0.10683 F1500
G1 X173.566 Y29.647 E0.09369 F1500
G1 X173.525 Y30.452 E0.08060 F1500
G1 X173.468 Y31.125 E0.06757 F1500
G1 X173.395 Y31.667 E0.05466 F1500
G1 X173.240 Y32.304 E0.06557 F1500
G1 X172.934 Y33.263 E0.10065 F1500
G1 X172.478 Y34.544 E0.13595 F1500
G1 X171.873 Y36.147 E0.17134 F1500
G1 X171.117 Y38.072 E0.20678 F1500
G1 X171.021 Y38.254 E0.02061 F1500
G1 X170.894 Y38.396 E0.01900 F1500
G1 X170.738 Y38.497 E0.01868 F1500
G1 X170.550 Y38.558 E0.01969 F1500
G1 X170.332 Y38.578 E0.02186 F1500
G1 X170.165 Y38.580 E0.01671 F1500
G1 X169.968 Y38.586 E0.01975 F1500
G1 X169.740 Y38.596 E0.02280 F1500
G1 X169.482 Y38.610 E0.02586 F1500
G1 X169.193 Y38.628 E0.02892 F1500
G1 X168.905 Y38.647 E0.02892 F1500
G1 X168.647 Y38.661 E0.02586 F1500
G1 X168.419 Y38.671 E0.02280 F1500
G1 X168.221 Y38.677 E0.01975 F1500
G1 X168.054 Y38.679 E0.01671 F1500
G1 X167.909 Y38.677 E0.01448 F1500
G1 X167.738 Y38.671 E0.01712 F1500
G1 X167.541 Y38.661 E0.01977 F1500
G1 X167.317 Y38.647 E0.02242 F1500
G1 X167.067 Y38.628 E0.02508 F1500
G1 X166.817 Y38.610 E0.02508 F1500
G1 X166.593 Y38.596 E0.02242 F1500
G1 X166.396 Y38.586 E0.01977 F1500
G1 X166.225 Y38.580 E0.01712 F1500
G1 X166.080 Y38.578 E0.01448 F1500
G1 X165.884 Y38.553 E0.01969 F1500
G1 X165.703 Y38.481 E0.01954 F1500
G1 X165.536 Y38.359 E0.02066 F1500
G1 X165.383 Y38.189 E0.02287 F1500
G1 X165.244 Y37.970 E0.02590 F1500
G1 X164.728 Y36.827 E0.12544 F1500
G1 X164.232 Y35.524 E0.13944 F1500
G1 X163.756 Y34.061 E0.15386 F1500
G1 X163.300 Y32.438 E0.16859 F1500
G1 X162.865 Y30.655 E0.18355 F1500
G1 X162.756 Y30.054 E0.06103 F1500
G1 X162.671 Y29.346 E0.07129 F1500
G1 X162.610 Y28.531 E0.08174 F1500
G1 X162.573 Y27.609 E0.09232 F1500
G1 X162.561 Y26.579 E0.10298 F1500
G1 X162.561 Y25.850 E0.07290 F1500
G1 X162.561 Y25.121 E0.07290 F1500
G1 X162.561 Y24.392 E0.07290 F1500
G1 X162.561 Y23.663 E0.07290 F1500
G1 X162.561 Y22.934 E0.07290 F1500
G1 X162.577 Y22.651 E0.02830 F1500
G1 X162.626 Y22.432 E0.02250 F1500
G1 X162.707 Y22.275 E0.01766 F1500
G1 X162.820 Y22.181 E0.01474 F1500
G1 X162.966 Y22.149 E0.01491 F1500
G1 X163.323 Y22.146 E0.03564 F1500
G1 X163.744 Y22.137 E0.04213 F1500
G1 X164.230 Y22.122 E0.04863 F1500
G1 X164.781 Y22.101 E0.05512 F1500
G1 X165.396 Y22.073 E0.06162 F1500
G1 X166.021 Y22.046 E0.06253 F1500
G1 X166.579 Y22.025 E0.05583 F1500
G1 X167.070 Y22.009 E0.04913 F1500
G1 X167.494 Y22.000 E0.04244 F1500
G1 X167.852 Y21.997 E0.03574 F1500
G1 X168.220 Y22.000 E0.03686 F1500
G1 X168.658 Y22.009 E0.04375 F1500
G1 X169.164 Y22.025 E0.05065 F1500
G1 X169.739 Y22.046 E0.05755 F1500
G1 X170.383 Y22.073 E0.06446 F1500
G1 X171.028 Y22.101 E0.06456 F1500
G1 X171.606 Y22.122 E0.05786 F1500
G1 X172.118 Y22.137 E0.05116 F1500
G1 X172.562 Y22.146 E0.04446 F1500
G1 X172.940 Y22.149 E0.03777 F1500
G1 X173.177 Y22.369 E0.03231 F1500
G1 X173.361 Y23.028 E0.06844 F1500
G1 X173.493 Y24.127 E0.11065 F1500
G1 X173.572 Y25.665 E0.15401 F1500
G1 X173.598 Y27.642 E0.19777 F1500
G1 X173.598 Y27.642 E0.00000 F1500
G1 X173.598 Y27.642 E0.00000 F1500
G1 X173.598 Y27.642 E0.00000 F1500
G1 X173.598 Y27.642 E0.00000 F1500
G1 X173.598 Y27.642 E0.00000 F1500

; End of print
G0 Z5 F1000 ; Lift nozzle
G0 X0 Y0 F3000 ; Return to origin
M400 ; Wait for moves to finish
M84 ; Disable motors